NoboruM/ECE598-Throwing/scripts/measured_joints.csv
time_,read/joint_1,read/joint_2,read/joint_3,read/joint_4,read/joint_5,read/joint_6,read/joint_7,read/joint_8,read/joint_9,read/joint_10,read/joint_11,read/joint_12,read/joint_13,read/joint_14,read/joint_15,read/joint_16,read/joint_17,read/joint_18,read/joint_19,read/joint_20,read/joint_21,read/joint_22,read/joint_23,read/joint_24,read/joint_25,read/joint_26,read/joint_27,read/joint_28,read/joint_29,read/joint_30,read/joint_31,read/joint_32,read/joint_33,read/joint_34,read/joint_35,read/joint_36,read/joint_37,read/joint_38,read/joint_39,read/joint_40,read/joint_41
0.242827,-0.136362,0.081364,0.014533,-0.009378,0.525061,0.044008,-0.148925,0.074777,-0.005284,0.008903,0.525067,0.003226,0.010716,-0.071053,-0.104265,0.511904,-0.054710,-1.841717,-0.103058,0.455833,0.248850,0.576130,2.488441,-2.247982,-0.746800,0.769299,1.443588,1.209395,-1.294859,0.009935,0.004014,-0.003177,0.000508,-0.005496,0.007067,-0.000775,-0.000778,-0.000776,-0.000771,0.000599,0.059111
0.244830,-0.136362,0.081364,0.014533,-0.009378,0.525061,0.044008,-0.148925,0.074777,-0.005284,0.008903,0.525067,0.003226,0.010716,-0.071053,-0.104265,0.511904,-0.054710,-1.841717,-0.103058,0.455833,0.248850,0.576130,2.488441,-2.247982,-0.746800,0.769299,1.443588,1.209395,-1.294859,0.009935,0.004014,-0.003177,0.000508,-0.005496,0.007067,-0.000775,-0.000778,-0.000776,-0.000771,0.000599,0.059111
0.246706,-0.136362,0.081364,0.014533,-0.009378,0.525061,0.044008,-0.148925,0.074777,-0.005284,0.008903,0.525067,0.003226,0.010716,-0.071053,-0.104265,0.511904,-0.054710,-1.841717,-0.103058,0.455833,0.248850,0.576130,2.488441,-2.247982,-0.746800,0.769299,1.443588,1.209395,-1.294859,0.009935,0.004014,-0.003177,0.000508,-0.005496,0.007067,-0.000775,-0.000778,-0.000776,-0.000771,0.000599,0.059111
0.248706,-0.136362,0.081364,0.014533,-0.009378,0.525061,0.044008,-0.148925,0.074777,-0.005284,0.008903,0.525067,0.003226,0.010716,-0.071053,-0.104265,0.511904,-0.054710,-1.841717,-0.103058,0.455833,0.248850,0.576130,2.488441,-2.247982,-0.746800,0.769299,1.443588,1.209395,-1.294859,0.009935,0.004014,-0.003177,0.000508,-0.005496,0.007067,-0.000775,-0.000778,-0.000776,-0.000771,0.000599,0.059111
0.250754,-0.136362,0.081364,0.014533,-0.009378,0.525061,0.044008,-0.148925,0.074777,-0.005284,0.008903,0.525067,0.003226,0.010716,-0.071053,-0.104265,0.511904,-0.054710,-1.841717,-0.103058,0.455833,0.248850,0.576130,2.488441,-2.247982,-0.746800,0.769299,1.443588,1.209395,-1.294859,0.009935,0.004014,-0.003177,0.000508,-0.005496,0.007067,-0.000775,-0.000778,-0.000776,-0.000771,0.000599,0.059111
0.252722,-0.136365,0.081365,0.014544,-0.009378,0.525061,0.044010,-0.148928,0.074778,-0.005285,0.008904,0.525067,0.003222,0.010714,-0.071055,-0.104268,0.511904,-0.054710,-1.841711,-0.103046,0.455843,0.248845,0.576133,2.488440,-2.247986,-0.746795,0.769308,1.443530,1.209378,-1.294823,0.010624,-0.002846,0.004658,-0.000241,0.005408,0.003705,-0.000775,-0.000778,-0.000776,-0.000771,0.000599,0.059122
0.254711,-0.136365,0.081365,0.014544,-0.009379,0.525061,0.044010,-0.148928,0.074778,-0.005286,0.008902,0.525067,0.003220,0.010713,-0.071056,-0.104271,0.511905,-0.054710,-1.841708,-0.103040,0.455848,0.248843,0.576134,2.488440,-2.247987,-0.746792,0.769310,1.443500,1.209371,-1.294809,0.010701,-0.003841,0.005800,0.003496,0.006585,-0.005235,-0.000775,-0.000778,-0.000776,-0.000771,0.000599,0.059128
0.256712,-0.136365,0.081365,0.014544,-0.009379,0.525061,0.044010,-0.148928,0.074778,-0.005286,0.008902,0.525067,0.003219,0.010714,-0.071057,-0.104273,0.511904,-0.054710,-1.841705,-0.103035,0.455853,0.248840,0.576135,2.488443,-2.247988,-0.746786,0.769313,1.443472,1.209359,-1.294799,0.010628,-0.001867,0.003804,0.003596,0.003073,-0.007467,-0.000775,-0.000778,-0.000776,-0.000771,0.000599,0.059133
0.258723,-0.136366,0.081365,0.014539,-0.009379,0.525061,0.044009,-0.148928,0.074777,-0.005288,0.008901,0.525066,0.003219,0.010714,-0.071057,-0.104273,0.511904,-0.054710,-1.841705,-0.103035,0.455853,0.248840,0.576135,2.488443,-2.247988,-0.746786,0.769313,1.443472,1.209359,-1.294799,0.010628,-0.001867,0.003804,0.003596,0.003073,-0.007467,-0.000775,-0.000778,-0.000776,-0.000771,0.000599,0.059133
0.260689,-0.136365,0.081364,0.014530,-0.009381,0.525061,0.044007,-0.148929,0.074777,-0.005289,0.008901,0.525066,0.003217,0.010716,-0.071057,-0.104275,0.511904,-0.054710,-1.841703,-0.103029,0.455857,0.248838,0.576136,2.488446,-2.247989,-0.746780,0.769318,1.443445,1.209346,-1.294791,0.010435,0.002503,-0.000724,0.000762,-0.004308,-0.004245,-0.000775,-0.000778,-0.000776,-0.000771,0.000599,0.059139
0.262747,-0.136365,0.081363,0.014526,-0.009382,0.525061,0.044006,-0.148929,0.074776,-0.005290,0.008900,0.525066,0.003215,0.010718,-0.071057,-0.104277,0.511904,-0.054710,-1.841700,-0.103023,0.455862,0.248835,0.576137,2.488448,-2.247991,-0.746775,0.769324,1.443421,1.209332,-1.294783,0.010129,0.003102,-0.001610,-0.004439,-0.005264,0.003839,-0.000775,-0.000778,-0.000776,-0.000771,0.000599,0.059144
0.264681,-0.136365,0.081363,0.014524,-0.009383,0.525060,0.044005,-0.148930,0.074776,-0.005291,0.008900,0.525066,0.003213,0.010718,-0.071058,-0.104280,0.511905,-0.054710,-1.841697,-0.103017,0.455867,0.248833,0.576138,2.488447,-2.247993,-0.746773,0.769329,1.443395,1.209317,-1.294776,0.009752,0.000639,0.000440,-0.005813,-0.001452,0.005352,-0.000775,-0.000778,-0.000776,-0.000771,0.000599,0.059150
0.266715,-0.136365,0.081363,0.014526,-0.009385,0.525060,0.044005,-0.148932,0.074776,-0.005291,0.008901,0.525066,0.003211,0.010717,-0.071059,-0.104282,0.511905,-0.054710,-1.841694,-0.103011,0.455872,0.248831,0.576139,2.488445,-2.247997,-0.746771,0.769334,1.443371,1.209303,-1.294765,0.009293,-0.004261,-0.000824,-0.004083,0.006320,0.001545,-0.000775,-0.000778,-0.000776,-0.000771,0.000599,0.059155
0.268708,-0.136365,0.081363,0.014529,-0.009386,0.525060,0.044005,-0.148933,0.074776,-0.005292,0.008901,0.525066,0.003209,0.010716,-0.071060,-0.104284,0.511905,-0.054710,-1.841691,-0.103005,0.455877,0.248828,0.576141,2.488444,-2.247998,-0.746770,0.769337,1.443330,1.209291,-1.294792,0.008917,-0.005424,0.000939,0.000108,0.007734,-0.007015,-0.000775,-0.000778,-0.000776,-0.000771,0.000599,0.059161
0.270730,-0.136365,0.081364,0.014534,-0.009387,0.525060,0.044006,-0.148934,0.074776,-0.005292,0.008901,0.525066,0.003207,0.010715,-0.071061,-0.104285,0.511905,-0.054710,-1.841689,-0.102999,0.455882,0.248826,0.576142,2.488445,-2.248000,-0.746767,0.769341,1.443294,1.209276,-1.294815,0.008496,-0.003589,-0.000557,0.000575,0.004389,-0.008967,-0.000775,-0.000778,-0.000776,-0.000771,0.000599,0.059166
0.272715,-0.136365,0.081364,0.014534,-0.009387,0.525060,0.044006,-0.148934,0.074776,-0.005292,0.008901,0.525066,0.003207,0.010715,-0.071061,-0.104285,0.511905,-0.054710,-1.841689,-0.102999,0.455882,0.248826,0.576142,2.488445,-2.248000,-0.746767,0.769341,1.443294,1.209276,-1.294815,0.008496,-0.003589,-0.000557,0.000575,0.004389,-0.008967,-0.000775,-0.000778,-0.000776,-0.000771,0.000599,0.059166
0.274737,-0.136365,0.081364,0.014534,-0.009387,0.525060,0.044006,-0.148934,0.074776,-0.005292,0.008901,0.525066,0.003207,0.010715,-0.071061,-0.104285,0.511905,-0.054710,-1.841689,-0.102999,0.455882,0.248826,0.576142,2.488445,-2.248000,-0.746767,0.769341,1.443294,1.209276,-1.294815,0.008496,-0.003589,-0.000557,0.000575,0.004389,-0.008967,-0.000775,-0.000778,-0.000776,-0.000771,0.000599,0.059166
0.276725,-0.136365,0.081364,0.014534,-0.009387,0.525060,0.044006,-0.148934,0.074776,-0.005292,0.008901,0.525066,0.003207,0.010715,-0.071061,-0.104285,0.511905,-0.054710,-1.841689,-0.102999,0.455882,0.248826,0.576142,2.488445,-2.248000,-0.746767,0.769341,1.443294,1.209276,-1.294815,0.008496,-0.003589,-0.000557,0.000575,0.004389,-0.008967,-0.000775,-0.000778,-0.000776,-0.000771,0.000599,0.059166
0.278731,-0.136365,0.081364,0.014534,-0.009387,0.525060,0.044006,-0.148934,0.074776,-0.005292,0.008901,0.525066,0.003207,0.010715,-0.071061,-0.104285,0.511905,-0.054710,-1.841689,-0.102999,0.455882,0.248826,0.576142,2.488445,-2.248000,-0.746767,0.769341,1.443294,1.209276,-1.294815,0.008496,-0.003589,-0.000557,0.000575,0.004389,-0.008967,-0.000775,-0.000778,-0.000776,-0.000771,0.000599,0.059166
0.280709,-0.136365,0.081364,0.014534,-0.009387,0.525060,0.044006,-0.148934,0.074776,-0.005292,0.008901,0.525066,0.003207,0.010715,-0.071061,-0.104285,0.511905,-0.054710,-1.841689,-0.102999,0.455882,0.248826,0.576142,2.488445,-2.248000,-0.746767,0.769341,1.443294,1.209276,-1.294815,0.008496,-0.003589,-0.000557,0.000575,0.004389,-0.008967,-0.000775,-0.000778,-0.000776,-0.000771,0.000599,0.059166
0.282723,-0.136367,0.081365,0.014545,-0.009388,0.525060,0.044008,-0.148936,0.074777,-0.005293,0.008901,0.525066,0.003203,0.010715,-0.071062,-0.104289,0.511905,-0.054710,-1.841683,-0.102988,0.455891,0.248821,0.576144,2.488448,-2.248002,-0.746760,0.769351,1.443226,1.209250,-1.294856,0.007611,0.001179,-0.000664,-0.001242,-0.003704,0.002739,-0.000775,-0.000778,-0.000776,-0.000771,0.000599,0.059177
0.285033,-0.136369,0.081365,0.014547,-0.009387,0.525060,0.044008,-0.148937,0.074777,-0.005294,0.008902,0.525066,0.003202,0.010714,-0.071062,-0.104291,0.511906,-0.054710,-1.841680,-0.102982,0.455896,0.248818,0.576145,2.488449,-2.248003,-0.746759,0.769355,1.443195,1.209236,-1.294868,0.007144,-0.001326,0.000756,0.002103,0.000199,0.004394,-0.000775,-0.000778,-0.000776,-0.000771,0.000599,0.059183
0.286736,-0.136369,0.081365,0.014547,-0.009387,0.525060,0.044008,-0.148937,0.074777,-0.005294,0.008902,0.525066,0.003202,0.010714,-0.071062,-0.104291,0.511906,-0.054710,-1.841680,-0.102982,0.455896,0.248818,0.576145,2.488449,-2.248003,-0.746759,0.769355,1.443195,1.209236,-1.294868,0.007144,-0.001326,0.000756,0.002103,-0.001589,0.000253,-0.000775,-0.000778,-0.000776,-0.000771,0.000599,0.059188
0.288723,-0.136371,0.081364,0.014544,-0.009386,0.525060,0.044008,-0.148939,0.074777,-0.005295,0.008903,0.525066,0.003200,0.010715,-0.071063,-0.104292,0.511906,-0.054710,-1.841677,-0.102976,0.455901,0.248816,0.576146,2.488451,-2.248004,-0.746754,0.769357,1.443165,1.209226,-1.294878,0.006676,-0.000575,-0.001016,0.001886,-0.001589,0.000253,-0.000775,-0.000778,-0.000776,-0.000771,0.000599,0.059188
0.290703,-0.136373,0.081364,0.014541,-0.009385,0.525061,0.044007,-0.148940,0.074777,-0.005296,0.008903,0.525066,0.003198,0.010716,-0.071064,-0.104294,0.511906,-0.054710,-1.841675,-0.102970,0.455906,0.248814,0.576148,2.488451,-2.248004,-0.746752,0.769361,1.443138,1.209216,-1.294886,0.006229,0.002800,0.000317,-0.001210,0.002094,0.002371,-0.000775,-0.000778,-0.000776,-0.000771,0.000599,0.059194
0.292692,-0.136375,0.081364,0.014540,-0.009384,0.525061,0.044007,-0.148942,0.074777,-0.005296,0.008904,0.525066,0.003196,0.010717,-0.071064,-0.104295,0.511906,-0.054710,-1.841672,-0.102964,0.455911,0.248811,0.576149,2.488454,-2.248005,-0.746747,0.769362,1.443112,1.209208,-1.294893,0.005797,0.002572,-0.001523,-0.000940,0.000121,-0.001395,-0.000775,-0.000778,-0.000776,-0.000771,0.000599,0.059199
0.294770,-0.136376,0.081364,0.014542,-0.009383,0.525061,0.044007,-0.148943,0.074777,-0.005297,0.008905,0.525066,0.003195,0.010716,-0.071065,-0.104297,0.511906,-0.054710,-1.841669,-0.102958,0.455916,0.248809,0.576150,2.488454,-2.248007,-0.746745,0.769367,1.443087,1.209201,-1.294897,0.005397,-0.000555,-0.000244,0.002040,-0.001060,0.000809,-0.000775,-0.000778,-0.000776,-0.000771,0.000599,0.059205
0.296699,-0.136377,0.081364,0.014539,-0.009383,0.525061,0.044006,-0.148945,0.074777,-0.005297,0.008906,0.525066,0.003193,0.010717,-0.071066,-0.104299,0.511907,-0.054710,-1.841666,-0.102952,0.455920,0.248806,0.576151,2.488454,-2.248008,-0.746745,0.769370,1.443063,1.209193,-1.294901,0.005029,-0.000310,0.003552,0.001524,0.002620,-0.002402,-0.000775,-0.000778,-0.000776,-0.000771,0.000599,0.059210
0.298719,-0.136378,0.081364,0.014539,-0.009383,0.525061,0.044006,-0.148944,0.074776,-0.005299,0.008903,0.525066,0.003191,0.010716,-0.071066,-0.104301,0.511907,-0.054710,-1.841663,-0.102946,0.455925,0.248804,0.576152,2.488456,-2.248010,-0.746741,0.769373,1.443042,1.209185,-1.294903,0.004689,0.002659,0.003698,-0.001810,0.001135,-0.000028,-0.000775,-0.000778,-0.000776,-0.000771,0.000599,0.059216
0.300727,-0.136378,0.081364,0.014540,-0.009384,0.525061,0.044006,-0.148943,0.074777,-0.005300,0.008901,0.525066,0.003189,0.010715,-0.071067,-0.104303,0.511906,-0.054710,-1.841661,-0.102940,0.455930,0.248801,0.576153,2.488459,-2.248012,-0.746736,0.769375,1.443020,1.209179,-1.294906,0.004376,0.002138,0.000897,-0.001733,-0.004856,0.001439,-0.000775,-0.000778,-0.000776,-0.000771,0.000599,0.059221
0.302765,-0.136378,0.081364,0.014540,-0.009384,0.525061,0.044006,-0.148943,0.074777,-0.005300,0.008901,0.525066,0.003189,0.010715,-0.071067,-0.104303,0.511906,-0.054710,-1.841661,-0.102940,0.455930,0.248801,0.576153,2.488459,-2.248012,-0.746736,0.769375,1.443020,1.209179,-1.294906,0.004376,0.002138,0.000897,-0.001733,-0.004856,0.001439,-0.000775,-0.000778,-0.000776,-0.000771,0.000599,0.059221
0.304716,-0.136378,0.081364,0.014540,-0.009384,0.525061,0.044006,-0.148943,0.074777,-0.005300,0.008901,0.525066,0.003189,0.010715,-0.071067,-0.104303,0.511906,-0.054710,-1.841661,-0.102940,0.455930,0.248801,0.576153,2.488459,-2.248012,-0.746736,0.769375,1.443020,1.209179,-1.294906,0.004376,0.002138,0.000897,-0.001733,-0.004856,0.001439,-0.000775,-0.000778,-0.000776,-0.000771,0.000599,0.059221
0.306713,-0.136378,0.081364,0.014540,-0.009384,0.525061,0.044006,-0.148943,0.074777,-0.005300,0.008901,0.525066,0.003189,0.010715,-0.071067,-0.104303,0.511906,-0.054710,-1.841661,-0.102940,0.455930,0.248801,0.576153,2.488459,-2.248012,-0.746736,0.769375,1.443020,1.209179,-1.294906,0.004376,0.002138,0.000897,-0.001733,-0.004856,0.001439,-0.000775,-0.000778,-0.000776,-0.000771,0.000599,0.059221
0.308691,-0.136378,0.081364,0.014540,-0.009384,0.525061,0.044006,-0.148943,0.074777,-0.005300,0.008901,0.525066,0.003189,0.010715,-0.071067,-0.104303,0.511906,-0.054710,-1.841661,-0.102940,0.455930,0.248801,0.576153,2.488459,-2.248012,-0.746736,0.769375,1.443020,1.209179,-1.294906,0.004376,0.002138,0.000897,-0.001733,-0.004856,0.001439,-0.000775,-0.000778,-0.000776,-0.000771,0.000599,0.059221
0.310997,-0.136378,0.081364,0.014540,-0.009384,0.525061,0.044006,-0.148943,0.074777,-0.005300,0.008901,0.525066,0.003189,0.010715,-0.071067,-0.104303,0.511906,-0.054710,-1.841661,-0.102940,0.455930,0.248801,0.576153,2.488459,-2.248012,-0.746736,0.769375,1.443020,1.209179,-1.294906,0.004376,0.002138,0.000897,-0.001733,-0.004856,0.001439,-0.000775,-0.000778,-0.000776,-0.000771,0.000599,0.059221
0.312687,-0.136378,0.081363,0.014537,-0.009386,0.525061,0.044005,-0.148944,0.074776,-0.005303,0.008899,0.525066,0.003185,0.010714,-0.071068,-0.104308,0.511907,-0.054710,-1.841655,-0.102929,0.455940,0.248797,0.576156,2.488457,-2.248018,-0.746732,0.769383,1.442983,1.209165,-1.294892,0.003795,-0.001120,-0.005632,0.000450,-0.000168,0.000087,-0.000775,-0.000778,-0.000776,-0.000771,0.000599,0.059232
0.314769,-0.136378,0.081364,0.014539,-0.009387,0.525060,0.044006,-0.148944,0.074776,-0.005304,0.008899,0.525066,0.003184,0.010713,-0.071069,-0.104310,0.511907,-0.054710,-1.841652,-0.102923,0.455945,0.248794,0.576157,2.488458,-2.248019,-0.746730,0.769384,1.442965,1.209161,-1.294885,0.003571,0.001714,-0.003877,-0.002987,-0.001118,-0.003456,-0.000775,-0.000778,-0.000776,-0.000771,0.000599,0.059238
0.316676,-0.136378,0.081364,0.014539,-0.009387,0.525060,0.044006,-0.148944,0.074776,-0.005304,0.008899,0.525066,0.003182,0.010712,-0.071069,-0.104312,0.511907,-0.054710,-1.841649,-0.102917,0.455949,0.248792,0.576158,2.488457,-2.248020,-0.746731,0.769387,1.442949,1.209155,-1.294878,0.003378,0.001088,0.000315,-0.002995,0.003246,-0.000862,-0.000775,-0.000778,-0.000776,-0.000771,0.000599,0.059243
0.318772,-0.136380,0.081364,0.014540,-0.009386,0.525060,0.044006,-0.148945,0.074776,-0.005305,0.008898,0.525066,0.003182,0.010712,-0.071070,-0.104314,0.511908,-0.054710,-1.841646,-0.102911,0.455954,0.248789,0.576159,2.488459,-2.248022,-0.746729,0.769390,1.442933,1.209151,-1.294873,0.003206,-0.002327,0.000785,-0.000232,0.002272,0.006170,-0.000775,-0.000778,-0.000776,-0.000771,0.000599,0.059249
0.320690,-0.136382,0.081364,0.014539,-0.009385,0.525061,0.044005,-0.148946,0.074776,-0.005306,0.008898,0.525066,0.003180,0.010712,-0.071070,-0.104314,0.511908,-0.054710,-1.841646,-0.102911,0.455954,0.248789,0.576159,2.488459,-2.248022,-0.746729,0.769390,1.442933,1.209151,-1.294873,0.003206,-0.002327,0.000785,-0.000232,0.002272,0.006170,-0.000775,-0.000778,-0.000776,-0.000771,0.000599,0.059249
0.322692,-0.136383,0.081364,0.014540,-0.009384,0.525061,0.044006,-0.148947,0.074777,-0.005307,0.008898,0.525066,0.003178,0.010711,-0.071071,-0.104315,0.511908,-0.054710,-1.841644,-0.102905,0.455959,0.248787,0.576160,2.488461,-2.248023,-0.746725,0.769391,1.442918,1.209150,-1.294867,0.003060,-0.002308,-0.001751,0.001582,-0.003554,0.006392,-0.000775,-0.000778,-0.000776,-0.000771,0.000599,0.059255
0.324746,-0.136386,0.081364,0.014541,-0.009382,0.525061,0.044006,-0.148948,0.074777,-0.005308,0.008898,0.525066,0.003177,0.010711,-0.071071,-0.104317,0.511908,-0.054710,-1.841641,-0.102899,0.455964,0.248784,0.576162,2.488463,-2.248024,-0.746724,0.769391,1.442903,1.209147,-1.294862,0.002938,0.000481,-0.001031,0.000127,-0.003661,0.001629,-0.000775,-0.000778,-0.000776,-0.000771,0.000599,0.059260
0.326731,-0.136387,0.081364,0.014536,-0.009382,0.525061,0.044005,-0.148950,0.074776,-0.005309,0.008899,0.525066,0.003175,0.010711,-0.071072,-0.104319,0.511908,-0.054710,-1.841638,-0.102893,0.455969,0.248782,0.576163,2.488463,-2.248024,-0.746723,0.769391,1.442889,1.209142,-1.294857,0.002832,-0.000180,0.002315,0.000198,0.000955,-0.007189,-0.000775,-0.000778,-0.000776,-0.000771,0.000599,0.059266
0.328726,-0.136389,0.081363,0.014535,-0.009381,0.525061,0.044005,-0.148951,0.074776,-0.005310,0.008900,0.525066,0.003173,0.010712,-0.071073,-0.104321,0.511908,-0.054710,-1.841635,-0.102887,0.455974,0.248779,0.576164,2.488465,-2.248026,-0.746720,0.769392,1.442876,1.209138,-1.294853,0.002743,0.002060,0.002098,-0.002659,0.000284,-0.009329,-0.000775,-0.000778,-0.000776,-0.000771,0.000599,0.059271
0.330699,-0.136390,0.081364,0.014536,-0.009381,0.525061,0.044005,-0.148953,0.074776,-0.005311,0.008900,0.525066,0.003171,0.010713,-0.071073,-0.104323,0.511908,-0.054710,-1.841632,-0.102882,0.455979,0.248777,0.576165,2.488468,-2.248027,-0.746716,0.769394,1.442864,1.209137,-1.294849,0.002666,0.000947,-0.000997,-0.002196,-0.004773,-0.006057,-0.000775,-0.000778,-0.000776,-0.000771,0.000599,0.059277
0.332680,-0.136390,0.081364,0.014536,-0.009381,0.525061,0.044005,-0.148953,0.074776,-0.005311,0.008900,0.525066,0.003171,0.010713,-0.071073,-0.104323,0.511908,-0.054710,-1.841632,-0.102882,0.455979,0.248777,0.576165,2.488468,-2.248027,-0.746716,0.769394,1.442864,1.209137,-1.294849,0.002666,0.000947,-0.000997,-0.002196,-0.004773,-0.006057,-0.000775,-0.000778,-0.000776,-0.000771,0.000599,0.059277
0.334730,-0.136390,0.081364,0.014536,-0.009381,0.525061,0.044005,-0.148953,0.074776,-0.005311,0.008900,0.525066,0.003171,0.010713,-0.071073,-0.104323,0.511908,-0.054710,-1.841632,-0.102882,0.455979,0.248777,0.576165,2.488468,-2.248027,-0.746716,0.769394,1.442864,1.209137,-1.294849,0.002666,0.000947,-0.000997,-0.002196,-0.004773,-0.006057,-0.000775,-0.000778,-0.000776,-0.000771,0.000599,0.059277
0.336715,-0.136390,0.081364,0.014536,-0.009381,0.525061,0.044005,-0.148953,0.074776,-0.005311,0.008900,0.525066,0.003171,0.010713,-0.071073,-0.104323,0.511908,-0.054710,-1.841632,-0.102882,0.455979,0.248777,0.576165,2.488468,-2.248027,-0.746716,0.769394,1.442864,1.209137,-1.294849,0.002666,0.000947,-0.000997,-0.002196,-0.004773,-0.006057,-0.000775,-0.000778,-0.000776,-0.000771,0.000599,0.059277
0.338758,-0.136390,0.081364,0.014536,-0.009381,0.525061,0.044005,-0.148953,0.074776,-0.005311,0.008900,0.525066,0.003171,0.010713,-0.071073,-0.104323,0.511908,-0.054710,-1.841632,-0.102882,0.455979,0.248777,0.576165,2.488468,-2.248027,-0.746716,0.769394,1.442864,1.209137,-1.294849,0.002666,0.000947,-0.000997,-0.002196,-0.004773,-0.006057,-0.000775,-0.000778,-0.000776,-0.000771,0.000599,0.059277
0.340689,-0.136390,0.081364,0.014536,-0.009381,0.525061,0.044005,-0.148953,0.074776,-0.005311,0.008900,0.525066,0.003171,0.010713,-0.071073,-0.104323,0.511908,-0.054710,-1.841632,-0.102882,0.455979,0.248777,0.576165,2.488468,-2.248027,-0.746716,0.769394,1.442864,1.209137,-1.294849,0.002666,0.000947,-0.000997,-0.002196,-0.004773,-0.006057,-0.000775,-0.000778,-0.000776,-0.000771,0.000599,0.059277
0.342735,-0.136392,0.081365,0.014544,-0.009381,0.525061,0.044006,-0.148955,0.074777,-0.005312,0.008901,0.525066,0.003168,0.010710,-0.071075,-0.104327,0.511909,-0.054710,-1.841626,-0.102870,0.455988,0.248772,0.576168,2.488467,-2.248032,-0.746718,0.769400,1.442843,1.209128,-1.294840,0.002560,-0.003174,0.002243,0.000557,0.001543,0.003560,-0.000775,-0.000778,-0.000776,-0.000771,0.000599,0.059288
0.344725,-0.136392,0.081365,0.014544,-0.009381,0.525061,0.044006,-0.148955,0.074777,-0.005312,0.008901,0.525066,0.003168,0.010710,-0.071075,-0.104327,0.511909,-0.054710,-1.841626,-0.102870,0.455988,0.248772,0.576168,2.488467,-2.248034,-0.746716,0.769400,1.442832,1.209127,-1.294835,0.002520,-0.000645,0.001725,-0.002668,0.000956,-0.000706,-0.000775,-0.000778,-0.000776,-0.000771,0.000599,0.059293
0.346681,-0.136392,0.081364,0.014544,-0.009382,0.525061,0.044006,-0.148957,0.074777,-0.005312,0.008902,0.525066,0.003166,0.010710,-0.071076,-0.104329,0.511909,-0.054710,-1.841624,-0.102864,0.455993,0.248770,0.576169,2.488468,-2.248034,-0.746716,0.769400,1.442832,1.209127,-1.294835,0.002520,-0.000645,0.001725,-0.002668,0.000956,-0.000706,-0.000775,-0.000778,-0.000776,-0.000771,0.000599,0.059293
0.348688,-0.136392,0.081364,0.014539,-0.009383,0.525061,0.044005,-0.148959,0.074777,-0.005313,0.008903,0.525066,0.003164,0.010711,-0.071077,-0.104331,0.511909,-0.054710,-1.841621,-0.102858,0.455998,0.248767,0.576170,2.488469,-2.248035,-0.746714,0.769401,1.442821,1.209127,-1.294830,0.002502,0.004166,-0.001616,-0.002502,-0.004013,0.000855,-0.000775,-0.000778,-0.000776,-0.000771,0.000599,0.059299
0.350799,-0.136393,0.081364,0.014537,-0.009384,0.525061,0.044004,-0.148961,0.074776,-0.005313,0.008904,0.525066,0.003162,0.010712,-0.071078,-0.104333,0.511909,-0.054710,-1.841618,-0.102852,0.456003,0.248765,0.576171,2.488470,-2.248036,-0.746714,0.769402,1.442810,1.209125,-1.294825,0.002489,0.005057,-0.001550,0.000402,-0.003430,-0.002839,-0.000775,-0.000778,-0.000776,-0.000771,0.000599,0.059304
0.352716,-0.136393,0.081364,0.014538,-0.009385,0.525060,0.044004,-0.148962,0.074776,-0.005314,0.008905,0.525066,0.003161,0.010713,-0.071078,-0.104335,0.511909,-0.054711,-1.841615,-0.102846,0.456008,0.248762,0.576172,2.488470,-2.248038,-0.746714,0.769404,1.442801,1.209122,-1.294807,0.002448,0.002783,0.001264,-0.000174,0.002193,-0.000381,-0.000775,-0.000778,-0.000776,-0.000771,0.000599,0.059310
0.354860,-0.136393,0.081364,0.014541,-0.009386,0.525060,0.044004,-0.148964,0.074776,-0.005314,0.008906,0.525066,0.003159,0.010713,-0.071079,-0.104338,0.511909,-0.054711,-1.841612,-0.102840,0.456012,0.248760,0.576173,2.488471,-2.248040,-0.746712,0.769406,1.442792,1.209122,-1.294792,0.002414,-0.001969,0.000617,0.002132,0.002250,0.006532,-0.000775,-0.000778,-0.000776,-0.000771,0.000599,0.059315
0.356851,-0.136393,0.081364,0.014545,-0.009387,0.525060,0.044005,-0.148965,0.074777,-0.005315,0.008906,0.525066,0.003157,0.010714,-0.071080,-0.104340,0.511909,-0.054710,-1.841610,-0.102834,0.456017,0.248758,0.576174,2.488475,-2.248042,-0.746707,0.769406,1.442782,1.209124,-1.294780,0.002388,-0.003030,-0.002824,0.001079,-0.002732,0.006650,-0.000775,-0.000778,-0.000776,-0.000771,0.000599,0.059321
0.358838,-0.136395,0.081364,0.014548,-0.009387,0.525060,0.044005,-0.148967,0.074777,-0.005315,0.008907,0.525066,0.003155,0.010714,-0.071081,-0.104342,0.511909,-0.054710,-1.841607,-0.102828,0.456022,0.248755,0.576176,2.488477,-2.248044,-0.746705,0.769405,1.442773,1.209123,-1.294768,0.002375,-0.001115,-0.002837,-0.002687,-0.002147,0.001795,-0.000775,-0.000778,-0.000776,-0.000771,0.000599,0.059326
0.360842,-0.136397,0.081365,0.014549,-0.009386,0.525060,0.044006,-0.148968,0.074777,-0.005316,0.008907,0.525066,0.003154,0.010714,-0.071082,-0.104344,0.511910,-0.054710,-1.841604,-0.102823,0.456027,0.248753,0.576177,2.488477,-2.248043,-0.746707,0.769404,1.442763,1.209120,-1.294770,0.002412,0.003205,-0.000082,-0.002937,0.003032,-0.007101,-0.000775,-0.000778,-0.000776,-0.000771,0.000599,0.059332
0.362868,-0.136397,0.081365,0.014549,-0.009386,0.525060,0.044006,-0.148968,0.074777,-0.005316,0.008907,0.525066,0.003154,0.010714,-0.071082,-0.104344,0.511910,-0.054710,-1.841604,-0.102823,0.456027,0.248753,0.576177,2.488477,-2.248043,-0.746707,0.769404,1.442763,1.209120,-1.294770,0.002412,0.003205,-0.000082,-0.002937,0.003032,-0.007101,-0.000775,-0.000778,-0.000776,-0.000771,0.000599,0.059332
0.364869,-0.136397,0.081365,0.014549,-0.009386,0.525060,0.044006,-0.148968,0.074777,-0.005316,0.008907,0.525066,0.003154,0.010714,-0.071082,-0.104344,0.511910,-0.054710,-1.841604,-0.102823,0.456027,0.248753,0.576177,2.488477,-2.248043,-0.746707,0.769404,1.442763,1.209120,-1.294770,0.002412,0.003205,-0.000082,-0.002937,0.003032,-0.007101,-0.000775,-0.000778,-0.000776,-0.000771,0.000599,0.059332
0.366868,-0.136397,0.081365,0.014549,-0.009386,0.525060,0.044006,-0.148968,0.074777,-0.005316,0.008907,0.525066,0.003154,0.010714,-0.071082,-0.104344,0.511910,-0.054710,-1.841604,-0.102823,0.456027,0.248753,0.576177,2.488477,-2.248043,-0.746707,0.769404,1.442763,1.209120,-1.294770,0.002412,0.003205,-0.000082,-0.002937,0.003032,-0.007101,-0.000775,-0.000778,-0.000776,-0.000771,0.000599,0.059332
0.368867,-0.136397,0.081365,0.014549,-0.009386,0.525060,0.044006,-0.148968,0.074777,-0.005316,0.008907,0.525066,0.003154,0.010714,-0.071082,-0.104344,0.511910,-0.054710,-1.841604,-0.102823,0.456027,0.248753,0.576177,2.488477,-2.248043,-0.746707,0.769404,1.442763,1.209120,-1.294770,0.002412,0.003205,-0.000082,-0.002937,0.003032,-0.007101,-0.000775,-0.000778,-0.000776,-0.000771,0.000599,0.059332
0.370883,-0.136397,0.081365,0.014549,-0.009386,0.525060,0.044006,-0.148968,0.074777,-0.005316,0.008907,0.525066,0.003154,0.010714,-0.071082,-0.104344,0.511910,-0.054710,-1.841604,-0.102823,0.456027,0.248753,0.576177,2.488477,-2.248043,-0.746707,0.769404,1.442763,1.209120,-1.294770,0.002412,0.003205,-0.000082,-0.002937,0.003032,-0.007101,-0.000775,-0.000778,-0.000776,-0.000771,0.000599,0.059332
0.372835,-0.136401,0.081364,0.014539,-0.009384,0.525060,0.044004,-0.148968,0.074776,-0.005320,0.008905,0.525066,0.003150,0.010713,-0.071083,-0.104348,0.511910,-0.054710,-1.841598,-0.102811,0.456037,0.248748,0.576179,2.488481,-2.248044,-0.746704,0.769404,1.442746,1.209119,-1.294772,0.002476,0.001330,0.000225,0.004520,-0.001855,-0.006095,-0.000775,-0.000778,-0.000776,-0.000771,0.000599,0.059343
0.374850,-0.136402,0.081364,0.014538,-0.009383,0.525060,0.044004,-0.148969,0.074776,-0.005322,0.008904,0.525065,0.003148,0.010713,-0.071083,-0.104351,0.511910,-0.054710,-1.841596,-0.102805,0.456042,0.248745,0.576180,2.488483,-2.248046,-0.746701,0.769407,1.442737,1.209120,-1.294725,0.002394,-0.003570,-0.003902,0.005514,-0.000589,0.001956,-0.000775,-0.000778,-0.000775,-0.000771,0.000599,0.059348
0.376855,-0.136404,0.081364,0.014539,-0.009383,0.525060,0.044004,-0.148970,0.074776,-0.005323,0.008903,0.525065,0.003146,0.010712,-0.071084,-0.104353,0.511910,-0.054711,-1.841593,-0.102799,0.456046,0.248743,0.576181,2.488482,-2.248049,-0.746700,0.769410,1.442728,1.209119,-1.294685,0.002331,-0.004746,-0.004466,0.003400,0.005041,0.003425,-0.000775,-0.000778,-0.000776,-0.000771,0.000599,0.059354
0.378792,-0.136405,0.081364,0.014542,-0.009382,0.525060,0.044005,-0.148970,0.074777,-0.005324,0.008903,0.525065,0.003145,0.010710,-0.071085,-0.104355,0.511910,-0.054710,-1.841590,-0.102793,0.456051,0.248741,0.576183,2.488484,-2.248051,-0.746698,0.769410,1.442717,1.209120,-1.294651,0.002296,-0.002917,-0.002154,-0.001221,0.004665,-0.000879,-0.000775,-0.000778,-0.000776,-0.000771,0.000599,0.059360
0.380906,-0.136406,0.081364,0.014540,-0.009383,0.525060,0.044004,-0.148972,0.074777,-0.005325,0.008903,0.525065,0.003143,0.010710,-0.071085,-0.104357,0.511911,-0.054710,-1.841587,-0.102787,0.456056,0.248738,0.576184,2.488485,-2.248052,-0.746699,0.769411,1.442705,1.209120,-1.294651,0.002354,0.001345,0.002487,-0.002171,-0.000138,0.000652,-0.000775,-0.000778,-0.000776,-0.000771,0.000599,0.059365
0.382865,-0.136406,0.081364,0.014541,-0.009383,0.525060,0.044004,-0.148973,0.074777,-0.005326,0.008903,0.525065,0.003141,0.010710,-0.071086,-0.104360,0.511911,-0.054711,-1.841584,-0.102781,0.456061,0.248736,0.576185,2.488485,-2.248053,-0.746699,0.769411,1.442692,1.209119,-1.294624,0.002343,0.001868,0.003304,-0.000171,0.000586,-0.003069,-0.000775,-0.000778,-0.000776,-0.000771,0.000599,0.059371
0.384865,-0.136407,0.081365,0.014544,-0.009384,0.525060,0.044005,-0.148974,0.074777,-0.005327,0.008903,0.525065,0.003139,0.010710,-0.071087,-0.104362,0.511911,-0.054710,-1.841581,-0.102776,0.456066,0.248733,0.576186,2.488487,-2.248055,-0.746696,0.769413,1.442680,1.209121,-1.294583,0.002290,-0.000622,0.001040,0.001140,-0.003310,-0.001081,-0.000775,-0.000778,-0.000776,-0.000771,0.000599,0.059376
0.386822,-0.136407,0.081365,0.014544,-0.009385,0.525060,0.044004,-0.148975,0.074777,-0.005328,0.008904,0.525065,0.003137,0.010711,-0.071088,-0.104364,0.511911,-0.054710,-1.841579,-0.102770,0.456071,0.248731,0.576187,2.488489,-2.248057,-0.746693,0.769416,1.442670,1.209121,-1.294539,0.002222,0.000144,-0.003707,-0.000717,-0.001404,0.005981,-0.000775,-0.000778,-0.000776,-0.000771,0.000599,0.059382
0.388824,-0.136407,0.081364,0.014541,-0.009385,0.525060,0.044004,-0.148975,0.074777,-0.005328,0.008904,0.525065,0.003137,0.010711,-0.071088,-0.104364,0.511911,-0.054710,-1.841579,-0.102770,0.456071,0.248731,0.576187,2.488489,-2.248057,-0.746693,0.769416,1.442670,1.209121,-1.294539,0.002222,0.000144,-0.003707,-0.000717,-0.001404,0.005981,-0.000775,-0.000778,-0.000776,-0.000771,0.000599,0.059382
0.390879,-0.136408,0.081364,0.014538,-0.009385,0.525060,0.044003,-0.148977,0.074776,-0.005329,0.008904,0.525065,0.003136,0.010711,-0.071089,-0.104366,0.511911,-0.054711,-1.841576,-0.102764,0.456076,0.248728,0.576188,2.488489,-2.248059,-0.746693,0.769418,1.442660,1.209119,-1.294502,0.002171,-0.002145,-0.004760,0.000554,0.004758,0.006650,-0.000775,-0.000778,-0.000776,-0.000771,0.000599,0.059387
0.392847,-0.136410,0.081364,0.014538,-0.009385,0.525060,0.044003,-0.148978,0.074776,-0.005329,0.008905,0.525065,0.003134,0.010712,-0.071090,-0.104368,0.511911,-0.054711,-1.841573,-0.102758,0.456080,0.248726,0.576190,2.488490,-2.248060,-0.746692,0.769417,1.442649,1.209119,-1.294470,0.002144,-0.001214,-0.002817,-0.001335,0.004825,0.001698,-0.000775,-0.000778,-0.000776,-0.000771,0.000599,0.059393
0.394901,-0.136410,0.081364,0.014538,-0.009385,0.525060,0.044003,-0.148978,0.074776,-0.005329,0.008905,0.525065,0.003134,0.010712,-0.071090,-0.104368,0.511911,-0.054711,-1.841573,-0.102758,0.456080,0.248726,0.576190,2.488490,-2.248060,-0.746692,0.769417,1.442649,1.209119,-1.294470,0.002144,-0.001214,-0.002817,-0.001335,0.004825,0.001698,-0.000775,-0.000778,-0.000776,-0.000771,0.000599,0.059393
0.396926,-0.136410,0.081364,0.014538,-0.009385,0.525060,0.044003,-0.148978,0.074776,-0.005329,0.008905,0.525065,0.003134,0.010712,-0.071090,-0.104368,0.511911,-0.054711,-1.841573,-0.102758,0.456080,0.248726,0.576190,2.488490,-2.248060,-0.746692,0.769417,1.442649,1.209119,-1.294470,0.002144,-0.001214,-0.002817,-0.001335,0.004825,0.001698,-0.000775,-0.000778,-0.000776,-0.000771,0.000599,0.059393
0.398860,-0.136410,0.081364,0.014538,-0.009385,0.525060,0.044003,-0.148978,0.074776,-0.005329,0.008905,0.525065,0.003134,0.010712,-0.071090,-0.104368,0.511911,-0.054711,-1.841573,-0.102758,0.456080,0.248726,0.576190,2.488490,-2.248060,-0.746692,0.769417,1.442649,1.209119,-1.294470,0.002144,-0.001214,-0.002817,-0.001335,0.004825,0.001698,-0.000775,-0.000778,-0.000776,-0.000771,0.000599,0.059393
0.400863,-0.136410,0.081364,0.014538,-0.009385,0.525060,0.044003,-0.148978,0.074776,-0.005329,0.008905,0.525065,0.003134,0.010712,-0.071090,-0.104368,0.511911,-0.054711,-1.841573,-0.102758,0.456080,0.248726,0.576190,2.488490,-2.248060,-0.746692,0.769417,1.442649,1.209119,-1.294470,0.002144,-0.001214,-0.002817,-0.001335,0.004825,0.001698,-0.000775,-0.000778,-0.000776,-0.000771,0.000599,0.059393
0.402911,-0.136411,0.081364,0.014540,-0.009385,0.525060,0.044003,-0.148980,0.074777,-0.005330,0.008905,0.525065,0.003132,0.010712,-0.071090,-0.104371,0.511912,-0.054710,-1.841570,-0.102752,0.456085,0.248721,0.576192,2.488494,-2.248060,-0.746690,0.769416,1.442624,1.209118,-1.294419,0.002140,0.002248,0.002102,0.000475,0.001149,-0.009813,-0.000775,-0.000778,-0.000776,-0.000771,0.000599,0.059404
0.404849,-0.136412,0.081365,0.014544,-0.009385,0.525060,0.044004,-0.148981,0.074777,-0.005331,0.008906,0.525065,0.003130,0.010712,-0.071091,-0.104373,0.511912,-0.054710,-1.841567,-0.102746,0.456090,0.248721,0.576192,2.488494,-2.248060,-0.746690,0.769416,1.442611,1.209121,-1.294346,0.002015,-0.000727,-0.000359,-0.001996,-0.002368,-0.006524,-0.000775,-0.000778,-0.000775,-0.000771,0.000599,0.059409
0.406854,-0.136413,0.081365,0.014546,-0.009384,0.525060,0.044005,-0.148982,0.074777,-0.005332,0.008906,0.525065,0.003129,0.010713,-0.071092,-0.104375,0.511912,-0.054710,-1.841565,-0.102740,0.456095,0.248719,0.576193,2.488497,-2.248062,-0.746685,0.769418,1.442611,1.209121,-1.294346,0.002015,-0.000727,-0.000359,-0.001996,-0.002368,-0.006524,-0.000775,-0.000778,-0.000775,-0.000771,0.000599,0.059409
0.408834,-0.136414,0.081364,0.014543,-0.009384,0.525060,0.044004,-0.148984,0.074777,-0.005332,0.008907,0.525065,0.003127,0.010712,-0.071093,-0.104377,0.511912,-0.054711,-1.841562,-0.102734,0.456100,0.248716,0.576194,2.488496,-2.248065,-0.746686,0.769423,1.442599,1.209120,-1.294301,0.001964,-0.000347,0.000427,-0.001206,-0.000168,0.001583,-0.000775,-0.000778,-0.000776,-0.000771,0.000599,0.059415
0.410791,-0.136416,0.081364,0.014540,-0.009383,0.525060,0.044003,-0.148986,0.074777,-0.005333,0.008908,0.525065,0.003125,0.010711,-0.071094,-0.104378,0.511912,-0.054711,-1.841559,-0.102728,0.456105,0.248714,0.576195,2.488496,-2.248066,-0.746686,0.769424,1.442585,1.209121,-1.294262,0.001931,0.002736,-0.001855,0.002208,-0.003408,0.002642,-0.000775,-0.000778,-0.000776,-0.000771,0.000599,0.059420
0.412845,-0.136418,0.081364,0.014539,-0.009383,0.525060,0.044003,-0.148988,0.074777,-0.005334,0.008909,0.525065,0.003123,0.010711,-0.071095,-0.104380,0.511912,-0.054711,-1.841556,-0.102722,0.456110,0.248711,0.576197,2.488496,-2.248068,-0.746685,0.769426,1.442572,1.209120,-1.294205,0.001845,0.002302,-0.000934,0.002041,-0.001401,-0.001471,-0.000775,-0.000778,-0.000776,-0.000771,0.000599,0.059426
0.414834,-0.136419,0.081364,0.014540,-0.009383,0.525060,0.044003,-0.148987,0.074777,-0.005336,0.008906,0.525065,0.003121,0.010709,-0.071095,-0.104382,0.511913,-0.054711,-1.841553,-0.102716,0.456114,0.248709,0.576198,2.488497,-2.248070,-0.746684,0.769429,1.442561,1.209118,-1.294142,0.001737,-0.000966,0.002574,-0.001009,0.005388,0.000638,-0.000775,-0.000778,-0.000776,-0.000771,0.000599,0.059431
0.416852,-0.136420,0.081365,0.014544,-0.009382,0.525060,0.044004,-0.148986,0.074777,-0.005338,0.008904,0.525065,0.003120,0.010708,-0.071096,-0.104385,0.511913,-0.054711,-1.841550,-0.102711,0.456119,0.248707,0.576199,2.488499,-2.248071,-0.746682,0.769429,1.442548,1.209119,-1.294089,0.001659,-0.000828,0.002489,-0.000695,0.005954,-0.003161,-0.000775,-0.000778,-0.000776,-0.000771,0.000599,0.059437
0.418882,-0.136421,0.081365,0.014542,-0.009383,0.525060,0.044004,-0.148986,0.074777,-0.005339,0.008903,0.525065,0.003118,0.010708,-0.071096,-0.104387,0.511913,-0.054711,-1.841547,-0.102705,0.456124,0.248704,0.576200,2.488501,-2.248072,-0.746681,0.769430,1.442537,1.209120,-1.294045,0.001606,0.002058,-0.000498,0.002331,0.001924,-0.001233,-0.000775,-0.000778,-0.000776,-0.000771,0.000599,0.059442
0.420838,-0.136421,0.081364,0.014535,-0.009384,0.525060,0.044002,-0.148987,0.074777,-0.005340,0.008902,0.525065,0.003116,0.010709,-0.071097,-0.104390,0.511913,-0.054710,-1.841545,-0.102699,0.456129,0.248702,0.576201,2.488503,-2.248074,-0.746678,0.769432,1.442526,1.209123,-1.294006,0.001552,0.001462,-0.000138,0.001861,-0.005916,0.005335,-0.000775,-0.000778,-0.000776,-0.000771,0.000599,0.059448
0.422847,-0.136421,0.081364,0.014535,-0.009384,0.525060,0.044002,-0.148987,0.074777,-0.005340,0.008902,0.525065,0.003116,0.010709,-0.071097,-0.104390,0.511913,-0.054710,-1.841545,-0.102699,0.456129,0.248702,0.576201,2.488503,-2.248074,-0.746678,0.769432,1.442526,1.209123,-1.294006,0.001552,0.001462,-0.000138,0.001861,-0.005916,0.005335,-0.000775,-0.000778,-0.000776,-0.000771,0.000599,0.059448
0.424834,-0.136421,0.081364,0.014535,-0.009384,0.525060,0.044002,-0.148987,0.074777,-0.005340,0.008902,0.525065,0.003116,0.010709,-0.071097,-0.104390,0.511913,-0.054710,-1.841545,-0.102699,0.456129,0.248702,0.576201,2.488503,-2.248074,-0.746678,0.769432,1.442526,1.209123,-1.294006,0.001552,0.001462,-0.000138,0.001861,-0.005916,0.005335,-0.000775,-0.000778,-0.000776,-0.000771,0.000599,0.059448
0.426862,-0.136421,0.081364,0.014535,-0.009384,0.525060,0.044002,-0.148987,0.074777,-0.005340,0.008902,0.525065,0.003116,0.010709,-0.071097,-0.104390,0.511913,-0.054710,-1.841545,-0.102699,0.456129,0.248702,0.576201,2.488503,-2.248074,-0.746678,0.769432,1.442526,1.209123,-1.294006,0.001552,0.001462,-0.000138,0.001861,-0.005916,0.005335,-0.000775,-0.000778,-0.000776,-0.000771,0.000599,0.059448
0.428864,-0.136421,0.081364,0.014535,-0.009384,0.525060,0.044002,-0.148987,0.074777,-0.005340,0.008902,0.525065,0.003116,0.010709,-0.071097,-0.104390,0.511913,-0.054710,-1.841545,-0.102699,0.456129,0.248702,0.576201,2.488503,-2.248074,-0.746678,0.769432,1.442526,1.209123,-1.294006,0.001552,0.001462,-0.000138,0.001861,-0.005916,0.005335,-0.000775,-0.000778,-0.000776,-0.000771,0.000599,0.059448
0.430860,-0.136421,0.081364,0.014535,-0.009384,0.525060,0.044002,-0.148987,0.074777,-0.005340,0.008902,0.525065,0.003116,0.010709,-0.071097,-0.104390,0.511913,-0.054710,-1.841545,-0.102699,0.456129,0.248702,0.576201,2.488503,-2.248074,-0.746678,0.769432,1.442526,1.209123,-1.294006,0.001552,0.001462,-0.000138,0.001861,-0.005916,0.005335,-0.000775,-0.000778,-0.000776,-0.000771,0.000599,0.059448
0.432850,-0.136421,0.081364,0.014532,-0.009385,0.525059,0.044001,-0.148988,0.074776,-0.005343,0.008901,0.525065,0.003112,0.010710,-0.071099,-0.104395,0.511913,-0.054710,-1.841539,-0.102687,0.456139,0.248697,0.576204,2.488506,-2.248076,-0.746674,0.769433,1.442505,1.209121,-1.293907,0.001383,-0.001918,0.002461,-0.001318,-0.004539,0.000998,-0.000775,-0.000778,-0.000775,-0.000771,0.000599,0.059459
0.434854,-0.136422,0.081364,0.014535,-0.009386,0.525059,0.044002,-0.148989,0.074777,-0.005344,0.008901,0.525065,0.003110,0.010710,-0.071100,-0.104397,0.511913,-0.054711,-1.841536,-0.102681,0.456143,0.248694,0.576205,2.488506,-2.248077,-0.746674,0.769433,1.442495,1.209118,-1.293869,0.001324,0.000878,-0.000822,0.001558,0.002767,-0.007789,-0.000775,-0.000778,-0.000776,-0.000771,0.000599,0.059464
0.436860,-0.136422,0.081364,0.014535,-0.009386,0.525059,0.044002,-0.148989,0.074777,-0.005344,0.008901,0.525065,0.003110,0.010710,-0.071100,-0.104397,0.511913,-0.054711,-1.841536,-0.102681,0.456143,0.248694,0.576205,2.488506,-2.248077,-0.746674,0.769433,1.442495,1.209118,-1.293869,0.001324,0.000878,-0.000822,0.001558,0.002767,-0.007789,-0.000775,-0.000778,-0.000776,-0.000771,0.000599,0.059464
0.438889,-0.136422,0.081364,0.014539,-0.009387,0.525059,0.044002,-0.148990,0.074777,-0.005344,0.008900,0.525065,0.003108,0.010710,-0.071100,-0.104400,0.511914,-0.054711,-1.841533,-0.102675,0.456148,0.248692,0.576206,2.488508,-2.248078,-0.746672,0.769433,1.442486,1.209118,-1.293838,0.001273,0.000218,-0.000699,0.000968,0.004297,-0.009925,-0.000775,-0.000778,-0.000775,-0.000771,0.000599,0.059470
0.440853,-0.136423,0.081365,0.014541,-0.009387,0.525059,0.044003,-0.148991,0.074777,-0.005345,0.008901,0.525065,0.003107,0.010709,-0.071101,-0.104402,0.511914,-0.054711,-1.841531,-0.102670,0.456153,0.248690,0.576207,2.488509,-2.248081,-0.746670,0.769435,1.442477,1.209120,-1.293812,0.001228,-0.003226,0.002173,-0.002419,0.001041,-0.006670,-0.000775,-0.000778,-0.000776,-0.000771,0.000599,0.059476
0.442890,-0.136425,0.081365,0.014542,-0.009386,0.525059,0.044003,-0.148993,0.074777,-0.005346,0.008901,0.525065,0.003105,0.010708,-0.071102,-0.104403,0.511914,-0.054710,-1.841528,-0.102664,0.456158,0.248687,0.576208,2.488510,-2.248083,-0.746668,0.769437,1.442468,1.209122,-1.293790,0.001205,-0.003233,0.001572,-0.002364,-0.006177,0.000959,-0.000775,-0.000778,-0.000776,-0.000771,0.000599,0.059481
0.444869,-0.136428,0.081365,0.014541,-0.009384,0.525059,0.044003,-0.148994,0.074777,-0.005347,0.008901,0.525065,0.003103,0.010707,-0.071102,-0.104405,0.511914,-0.054711,-1.841525,-0.102658,0.456163,0.248685,0.576209,2.488509,-2.248085,-0.746668,0.769438,1.442459,1.209122,-1.293770,0.001188,-0.000465,-0.001831,0.000464,-0.007484,0.002161,-0.000775,-0.000778,-0.000776,-0.000771,0.000599,0.059487
0.446846,-0.136431,0.081365,0.014539,-0.009382,0.525060,0.044003,-0.148996,0.074777,-0.005349,0.008902,0.525065,0.003102,0.010705,-0.071103,-0.104406,0.511914,-0.054711,-1.841522,-0.102652,0.456168,0.248682,0.576211,2.488508,-2.248085,-0.746669,0.769439,1.442450,1.209120,-1.293752,0.001176,0.004543,-0.001786,-0.000168,-0.003900,-0.001854,-0.000775,-0.000778,-0.000776,-0.000771,0.000599,0.059492
0.448863,-0.136434,0.081365,0.014540,-0.009380,0.525060,0.044003,-0.148998,0.074777,-0.005350,0.008903,0.525065,0.003100,0.010704,-0.071103,-0.104408,0.511915,-0.054711,-1.841519,-0.102646,0.456173,0.248680,0.576212,2.488507,-2.248086,-0.746671,0.769441,1.442443,1.209116,-1.293737,0.001170,0.005583,0.001037,0.002092,0.004177,0.000322,-0.000775,-0.000778,-0.000776,-0.000771,0.000599,0.059498
0.450869,-0.136435,0.081365,0.014536,-0.009379,0.525060,0.044002,-0.148999,0.074777,-0.005351,0.008903,0.525065,0.003098,0.010704,-0.071104,-0.104409,0.511915,-0.054711,-1.841516,-0.102640,0.456178,0.248677,0.576213,2.488508,-2.248088,-0.746668,0.769441,1.442432,1.209116,-1.293683,0.001070,0.003409,0.000390,0.000991,0.005807,-0.003435,-0.000775,-0.000778,-0.000776,-0.000771,0.000599,0.059503
0.452877,-0.136435,0.081365,0.014536,-0.009379,0.525060,0.044002,-0.148999,0.074777,-0.005351,0.008903,0.525065,0.003098,0.010704,-0.071104,-0.104409,0.511915,-0.054711,-1.841516,-0.102640,0.456178,0.248677,0.576213,2.488508,-2.248088,-0.746668,0.769441,1.442432,1.209116,-1.293683,0.001070,0.003409,0.000390,0.000991,0.005807,-0.003435,-0.000775,-0.000778,-0.000776,-0.000771,0.000599,0.059503
0.454843,-0.136435,0.081365,0.014536,-0.009379,0.525060,0.044002,-0.148999,0.074777,-0.005351,0.008903,0.525065,0.003098,0.010704,-0.071104,-0.104409,0.511915,-0.054711,-1.841516,-0.102640,0.456178,0.248677,0.576213,2.488508,-2.248088,-0.746668,0.769441,1.442432,1.209116,-1.293683,0.001070,0.003409,0.000390,0.000991,0.005807,-0.003435,-0.000775,-0.000778,-0.000776,-0.000771,0.000599,0.059503
0.456837,-0.136435,0.081365,0.014536,-0.009379,0.525060,0.044002,-0.148999,0.074777,-0.005351,0.008903,0.525065,0.003098,0.010704,-0.071104,-0.104409,0.511915,-0.054711,-1.841516,-0.102640,0.456178,0.248677,0.576213,2.488508,-2.248088,-0.746668,0.769441,1.442432,1.209116,-1.293683,0.001070,0.003409,0.000390,0.000991,0.005807,-0.003435,-0.000775,-0.000778,-0.000776,-0.000771,0.000599,0.059503
0.458844,-0.136435,0.081365,0.014536,-0.009379,0.525060,0.044002,-0.148999,0.074777,-0.005351,0.008903,0.525065,0.003098,0.010704,-0.071104,-0.104409,0.511915,-0.054711,-1.841516,-0.102640,0.456178,0.248677,0.576213,2.488508,-2.248088,-0.746668,0.769441,1.442432,1.209116,-1.293683,0.001070,0.003409,0.000390,0.000991,0.005807,-0.003435,-0.000775,-0.000778,-0.000776,-0.000771,0.000599,0.059503
0.460852,-0.136435,0.081365,0.014536,-0.009379,0.525060,0.044002,-0.148999,0.074777,-0.005351,0.008903,0.525065,0.003098,0.010704,-0.071104,-0.104409,0.511915,-0.054711,-1.841516,-0.102640,0.456178,0.248677,0.576213,2.488508,-2.248088,-0.746668,0.769441,1.442432,1.209116,-1.293683,0.001070,0.003409,0.000390,0.000991,0.005807,-0.003435,-0.000775,-0.000778,-0.000776,-0.000771,0.000599,0.059503
0.462863,-0.136438,0.081365,0.014537,-0.009378,0.525060,0.044002,-0.149002,0.074777,-0.005352,0.008905,0.525065,0.003095,0.010705,-0.071106,-0.104413,0.511914,-0.054710,-1.841511,-0.102628,0.456187,0.248673,0.576215,2.488514,-2.248092,-0.746660,0.769445,1.442404,1.209122,-1.293581,0.000901,-0.002263,-0.003025,-0.003098,-0.004480,0.005097,-0.000775,-0.000778,-0.000775,-0.000771,0.000599,0.059514
0.464859,-0.136438,0.081365,0.014537,-0.009378,0.525060,0.044002,-0.149002,0.074777,-0.005352,0.008905,0.525065,0.003095,0.010705,-0.071106,-0.104413,0.511914,-0.054710,-1.841511,-0.102628,0.456187,0.248673,0.576215,2.488514,-2.248092,-0.746660,0.769445,1.442404,1.209122,-1.293564,0.000919,-0.000291,-0.000223,-0.000550,-0.005712,0.005456,-0.000775,-0.000778,-0.000776,-0.000771,0.000599,0.059520
0.466789,-0.136440,0.081365,0.014540,-0.009378,0.525060,0.044003,-0.149004,0.074777,-0.005353,0.008905,0.525065,0.003093,0.010705,-0.071106,-0.104415,0.511915,-0.054711,-1.841508,-0.102623,0.456192,0.248670,0.576216,2.488515,-2.248092,-0.746661,0.769445,1.442388,1.209121,-1.293564,0.000919,-0.000291,-0.000223,-0.000550,-0.005712,0.005456,-0.000775,-0.000778,-0.000776,-0.000771,0.000599,0.059520
0.468854,-0.136441,0.081365,0.014539,-0.009378,0.525060,0.044002,-0.149006,0.074777,-0.005354,0.008906,0.525066,0.003091,0.010706,-0.071107,-0.104417,0.511915,-0.054711,-1.841505,-0.102617,0.456197,0.248668,0.576218,2.488514,-2.248091,-0.746663,0.769445,1.442374,1.209117,-1.293548,0.000940,0.004071,0.001619,0.004274,-0.002061,0.000764,-0.000775,-0.000778,-0.000776,-0.000771,0.000599,0.059525
0.470920,-0.136441,0.081365,0.014540,-0.009379,0.525060,0.044002,-0.149007,0.074777,-0.005354,0.008907,0.525066,0.003089,0.010706,-0.071108,-0.104420,0.511916,-0.054711,-1.841502,-0.102611,0.456202,0.248665,0.576219,2.488515,-2.248092,-0.746661,0.769445,1.442358,1.209115,-1.293471,0.000812,0.004659,0.000169,0.005231,0.005644,-0.008031,-0.000775,-0.000778,-0.000776,-0.000771,0.000599,0.059531
0.472868,-0.136442,0.081365,0.014543,-0.009379,0.525060,0.044003,-0.149009,0.074777,-0.005355,0.008907,0.525066,0.003088,0.010707,-0.071109,-0.104422,0.511915,-0.054711,-1.841500,-0.102605,0.456207,0.248663,0.576220,2.488518,-2.248094,-0.746657,0.769447,1.442342,1.209116,-1.293379,0.000641,0.002219,-0.002797,0.003084,0.007505,-0.010179,-0.000775,-0.000778,-0.000776,-0.000771,0.000599,0.059536
0.474857,-0.136442,0.081365,0.014540,-0.009381,0.525060,0.044002,-0.149011,0.074777,-0.005355,0.008908,0.525066,0.003086,0.010707,-0.071110,-0.104424,0.511915,-0.054711,-1.841497,-0.102599,0.456212,0.248660,0.576221,2.488517,-2.248098,-0.746652,0.769451,1.442329,1.209120,-1.293304,0.000494,-0.002655,-0.002417,-0.001560,0.004517,-0.006934,-0.000775,-0.000778,-0.000775,-0.000771,0.000599,0.059542
0.476843,-0.136442,0.081365,0.014541,-0.009382,0.525060,0.044002,-0.149012,0.074777,-0.005356,0.008909,0.525066,0.003084,0.010707,-0.071111,-0.104426,0.511915,-0.054711,-1.841494,-0.102593,0.456216,0.248658,0.576222,2.488517,-2.248100,-0.746651,0.769453,1.442310,1.209122,-1.293272,0.000472,-0.003797,0.000671,-0.002524,-0.002490,0.000686,-0.000775,-0.000778,-0.000776,-0.000771,0.000599,0.059547
0.478874,-0.136442,0.081365,0.014544,-0.009383,0.525060,0.044002,-0.149014,0.074777,-0.005356,0.008910,0.525066,0.003082,0.010707,-0.071112,-0.104428,0.511916,-0.054711,-1.841491,-0.102587,0.456221,0.248656,0.576223,2.488516,-2.248101,-0.746651,0.769455,1.442293,1.209121,-1.293244,0.000455,-0.001939,0.000245,-0.000528,-0.003625,0.001879,-0.000775,-0.000778,-0.000776,-0.000771,0.000599,0.059553
0.480863,-0.136443,0.081365,0.014548,-0.009384,0.525059,0.044003,-0.149016,0.074777,-0.005356,0.008911,0.525066,0.003080,0.010706,-0.071113,-0.104430,0.511916,-0.054711,-1.841488,-0.102581,0.456226,0.248653,0.576225,2.488515,-2.248102,-0.746652,0.769455,1.442278,1.209119,-1.293221,0.000442,0.002338,-0.003015,0.003852,0.000100,-0.002144,-0.000775,-0.000778,-0.000776,-0.000771,0.000599,0.059558
0.482881,-0.136443,0.081365,0.014548,-0.009384,0.525059,0.044003,-0.149016,0.074777,-0.005356,0.008911,0.525066,0.003080,0.010706,-0.071113,-0.104430,0.511916,-0.054711,-1.841488,-0.102581,0.456226,0.248653,0.576225,2.488515,-2.248102,-0.746652,0.769455,1.442278,1.209119,-1.293221,0.000442,0.002338,-0.003015,0.003852,0.000100,-0.002144,-0.000775,-0.000778,-0.000776,-0.000771,0.000599,0.059558
0.484893,-0.136443,0.081365,0.014548,-0.009384,0.525059,0.044003,-0.149016,0.074777,-0.005356,0.008911,0.525066,0.003080,0.010706,-0.071113,-0.104430,0.511916,-0.054711,-1.841488,-0.102581,0.456226,0.248653,0.576225,2.488515,-2.248102,-0.746652,0.769455,1.442278,1.209119,-1.293221,0.000442,0.002338,-0.003015,0.003852,0.000100,-0.002144,-0.000775,-0.000778,-0.000776,-0.000771,0.000599,0.059558
0.486862,-0.136443,0.081365,0.014548,-0.009384,0.525059,0.044003,-0.149016,0.074777,-0.005356,0.008911,0.525066,0.003080,0.010706,-0.071113,-0.104430,0.511916,-0.054711,-1.841488,-0.102581,0.456226,0.248653,0.576225,2.488515,-2.248102,-0.746652,0.769455,1.442278,1.209119,-1.293221,0.000442,0.002338,-0.003015,0.003852,0.000100,-0.002144,-0.000775,-0.000778,-0.000776,-0.000771,0.000599,0.059558
0.488879,-0.136443,0.081365,0.014548,-0.009384,0.525059,0.044003,-0.149016,0.074777,-0.005356,0.008911,0.525066,0.003080,0.010706,-0.071113,-0.104430,0.511916,-0.054711,-1.841488,-0.102581,0.456226,0.248653,0.576225,2.488515,-2.248102,-0.746652,0.769455,1.442278,1.209119,-1.293221,0.000442,0.002338,-0.003015,0.003852,0.000100,-0.002144,-0.000775,-0.000778,-0.000776,-0.000771,0.000599,0.059558
0.490875,-0.136443,0.081365,0.014548,-0.009384,0.525059,0.044003,-0.149016,0.074777,-0.005356,0.008911,0.525066,0.003080,0.010706,-0.071113,-0.104430,0.511916,-0.054711,-1.841488,-0.102581,0.456226,0.248653,0.576225,2.488515,-2.248102,-0.746652,0.769455,1.442278,1.209119,-1.293221,0.000442,0.002338,-0.003015,0.003852,0.000100,-0.002144,-0.000775,-0.000778,-0.000776,-0.000771,0.000599,0.059558
0.492849,-0.136444,0.081365,0.014544,-0.009386,0.525059,0.044002,-0.149016,0.074777,-0.005360,0.008908,0.525065,0.003076,0.010705,-0.071114,-0.104436,0.511916,-0.054711,-1.841483,-0.102569,0.456236,0.248648,0.576227,2.488515,-2.248105,-0.746650,0.769459,1.442253,1.209119,-1.293173,0.000386,0.000411,0.000001,0.002052,0.002576,0.006404,-0.000775,-0.000778,-0.000776,-0.000771,0.000599,0.059569
0.494891,-0.136445,0.081365,0.014541,-0.009385,0.525059,0.044001,-0.149016,0.074777,-0.005362,0.008907,0.525065,0.003074,0.010705,-0.071114,-0.104438,0.511916,-0.054711,-1.841480,-0.102564,0.456241,0.248646,0.576228,2.488518,-2.248107,-0.746644,0.769460,1.442239,1.209121,-1.293115,0.000272,-0.004498,-0.000602,-0.002822,0.000762,0.006418,-0.000775,-0.000778,-0.000775,-0.000771,0.000599,0.059575
0.496869,-0.136445,0.081365,0.014541,-0.009385,0.525059,0.044001,-0.149016,0.074777,-0.005362,0.008907,0.525065,0.003074,0.010705,-0.071114,-0.104438,0.511916,-0.054711,-1.841480,-0.102564,0.456241,0.248646,0.576228,2.488518,-2.248108,-0.746641,0.769459,1.442220,1.209122,-1.293097,0.000276,-0.005667,0.001691,-0.003955,-0.005702,0.001009,-0.000775,-0.000778,-0.000775,-0.000771,0.000599,0.059580
0.498840,-0.136447,0.081365,0.014540,-0.009384,0.525059,0.044001,-0.149017,0.074777,-0.005363,0.008907,0.525065,0.003073,0.010705,-0.071115,-0.104440,0.511916,-0.054711,-1.841477,-0.102558,0.456246,0.248643,0.576229,2.488520,-2.248108,-0.746641,0.769459,1.442220,1.209122,-1.293097,0.000276,-0.005667,0.001691,-0.003955,-0.005702,0.001009,-0.000775,-0.000778,-0.000775,-0.000771,0.000599,0.059580
0.500877,-0.136448,0.081365,0.014543,-0.009384,0.525059,0.044002,-0.149018,0.074777,-0.005364,0.008906,0.525065,0.003071,0.010705,-0.071116,-0.104442,0.511916,-0.054711,-1.841475,-0.102552,0.456250,0.248641,0.576230,2.488522,-2.248108,-0.746640,0.769457,1.442203,1.209121,-1.293081,0.000283,-0.003832,0.000621,-0.002062,-0.006285,-0.008274,-0.000775,-0.000778,-0.000775,-0.000771,0.000599,0.059586
0.502888,-0.136450,0.081365,0.014547,-0.009384,0.525059,0.044003,-0.149019,0.074777,-0.005365,0.008906,0.525065,0.003069,0.010704,-0.071116,-0.104445,0.511917,-0.054711,-1.841472,-0.102546,0.456255,0.248639,0.576231,2.488522,-2.248108,-0.746641,0.769458,1.442189,1.209118,-1.293067,0.000294,0.000425,-0.003162,0.002237,-0.001572,-0.010297,-0.000775,-0.000778,-0.000776,-0.000771,0.000599,0.059591
0.504839,-0.136450,0.081365,0.014545,-0.009384,0.525059,0.044002,-0.149020,0.074777,-0.005366,0.008906,0.525065,0.003067,0.010705,-0.071117,-0.104447,0.511917,-0.054711,-1.841468,-0.102540,0.456260,0.248636,0.576233,2.488521,-2.248109,-0.746642,0.769461,1.442176,1.209116,-1.293042,0.000270,0.000949,-0.003443,0.002788,0.007417,-0.006530,-0.000775,-0.000778,-0.000776,-0.000771,0.000599,0.059597
0.506858,-0.136451,0.081365,0.014539,-0.009385,0.525059,0.044001,-0.149021,0.074777,-0.005367,0.008907,0.525065,0.003065,0.010706,-0.071118,-0.104450,0.511917,-0.054711,-1.841466,-0.102534,0.456265,0.248634,0.576234,2.488522,-2.248110,-0.746641,0.769464,1.442165,1.209116,-1.293021,0.000249,-0.001535,-0.000888,0.000321,0.010216,0.001408,-0.000775,-0.000778,-0.000776,-0.000771,0.000599,0.059603
0.508845,-0.136451,0.081364,0.014537,-0.009386,0.525059,0.044000,-0.149023,0.074777,-0.005368,0.008907,0.525065,0.003063,0.010708,-0.071118,-0.104452,0.511917,-0.054711,-1.841463,-0.102528,0.456270,0.248631,0.576235,2.488525,-2.248110,-0.746638,0.769465,1.442154,1.209121,-1.293000,0.000237,-0.000766,0.003938,-0.004587,0.006619,0.003643,-0.000775,-0.000778,-0.000775,-0.000771,0.000599,0.059608
0.510806,-0.136452,0.081364,0.014537,-0.009387,0.525059,0.044000,-0.149024,0.074777,-0.005369,0.008907,0.525065,0.003061,0.010709,-0.071119,-0.104454,0.511917,-0.054711,-1.841460,-0.102523,0.456275,0.248629,0.576236,2.488528,-2.248111,-0.746634,0.769464,1.442142,1.209125,-1.292981,0.000237,0.002630,0.004913,-0.005765,-0.001316,0.000032,-0.000775,-0.000778,-0.000775,-0.000771,0.000599,0.059614
0.512843,-0.136452,0.081364,0.014537,-0.009387,0.525059,0.044000,-0.149024,0.074777,-0.005369,0.008907,0.525065,0.003061,0.010709,-0.071119,-0.104454,0.511917,-0.054711,-1.841460,-0.102523,0.456275,0.248629,0.576236,2.488528,-2.248111,-0.746634,0.769464,1.442142,1.209125,-1.292981,0.000237,0.002630,0.004913,-0.005765,-0.001316,0.000032,-0.000775,-0.000778,-0.000775,-0.000771,0.000599,0.059614
0.514832,-0.136452,0.081364,0.014537,-0.009387,0.525059,0.044000,-0.149024,0.074777,-0.005369,0.008907,0.525065,0.003061,0.010709,-0.071119,-0.104454,0.511917,-0.054711,-1.841460,-0.102523,0.456275,0.248629,0.576236,2.488528,-2.248111,-0.746634,0.769464,1.442142,1.209125,-1.292981,0.000237,0.002630,0.004913,-0.005765,-0.001316,0.000032,-0.000775,-0.000778,-0.000775,-0.000771,0.000599,0.059614
0.516830,-0.136452,0.081364,0.014537,-0.009387,0.525059,0.044000,-0.149024,0.074777,-0.005369,0.008907,0.525065,0.003061,0.010709,-0.071119,-0.104454,0.511917,-0.054711,-1.841460,-0.102523,0.456275,0.248629,0.576236,2.488528,-2.248111,-0.746634,0.769464,1.442142,1.209125,-1.292981,0.000237,0.002630,0.004913,-0.005765,-0.001316,0.000032,-0.000775,-0.000778,-0.000775,-0.000771,0.000599,0.059614
0.518844,-0.136452,0.081364,0.014537,-0.009387,0.525059,0.044000,-0.149024,0.074777,-0.005369,0.008907,0.525065,0.003061,0.010709,-0.071119,-0.104454,0.511917,-0.054711,-1.841460,-0.102523,0.456275,0.248629,0.576236,2.488528,-2.248111,-0.746634,0.769464,1.442142,1.209125,-1.292981,0.000237,0.002630,0.004913,-0.005765,-0.001316,0.000032,-0.000775,-0.000778,-0.000775,-0.000771,0.000599,0.059614
0.520845,-0.136452,0.081364,0.014537,-0.009387,0.525059,0.044000,-0.149024,0.074777,-0.005369,0.008907,0.525065,0.003061,0.010709,-0.071119,-0.104454,0.511917,-0.054711,-1.841460,-0.102523,0.456275,0.248629,0.576236,2.488528,-2.248111,-0.746634,0.769464,1.442142,1.209125,-1.292981,0.000237,0.002630,0.004913,-0.005765,-0.001316,0.000032,-0.000775,-0.000778,-0.000775,-0.000771,0.000599,0.059614
0.522845,-0.136453,0.081365,0.014541,-0.009388,0.525059,0.044000,-0.149027,0.074777,-0.005370,0.008908,0.525065,0.003058,0.010709,-0.071121,-0.104459,0.511918,-0.054711,-1.841455,-0.102511,0.456284,0.248624,0.576238,2.488530,-2.248114,-0.746631,0.769468,1.442122,1.209127,-1.292901,0.000110,-0.000600,-0.001871,0.000325,0.000871,-0.000264,-0.000775,-0.000778,-0.000775,-0.000771,0.000599,0.059625
0.524847,-0.136455,0.081365,0.014540,-0.009387,0.525059,0.044000,-0.149029,0.074777,-0.005371,0.008909,0.525065,0.003056,0.010708,-0.071122,-0.104460,0.511918,-0.054711,-1.841452,-0.102505,0.456289,0.248622,0.576240,2.488531,-2.248116,-0.746630,0.769471,1.442111,1.209129,-1.292861,0.000056,-0.000290,-0.002851,0.000841,-0.000734,0.002367,-0.000775,-0.000778,-0.000776,-0.000771,0.000599,0.059630
0.526926,-0.136457,0.081365,0.014542,-0.009386,0.525059,0.044001,-0.149030,0.074777,-0.005372,0.008910,0.525065,0.003054,0.010707,-0.071123,-0.104462,0.511918,-0.054711,-1.841449,-0.102499,0.456294,0.248619,0.576241,2.488531,-2.248117,-0.746630,0.769472,1.442101,1.209129,-1.292828,0.000013,0.002735,-0.000862,-0.001657,0.002593,-0.000496,-0.000775,-0.000778,-0.000776,-0.000771,0.000599,0.059636
0.528866,-0.136459,0.081365,0.014546,-0.009385,0.525059,0.044001,-0.149032,0.074777,-0.005372,0.008910,0.525065,0.003052,0.010707,-0.071124,-0.104464,0.511918,-0.054711,-1.841446,-0.102493,0.456299,0.248617,0.576242,2.488532,-2.248118,-0.746629,0.769474,1.442072,1.209126,-1.292859,0.000235,0.002280,0.003544,-0.000873,0.000800,0.002165,-0.000775,-0.000778,-0.000776,-0.000771,0.000599,0.059641
0.530806,-0.136461,0.081366,0.014548,-0.009384,0.525059,0.044002,-0.149033,0.074777,-0.005373,0.008911,0.525065,0.003051,0.010706,-0.071125,-0.104465,0.511918,-0.054711,-1.841443,-0.102487,0.456304,0.248614,0.576243,2.488535,-2.248119,-0.746625,0.769474,1.442044,1.209125,-1.292885,0.000416,-0.001016,0.004179,0.002527,-0.005659,-0.001119,-0.000775,-0.000778,-0.000776,-0.000771,0.000599,0.059647
0.532829,-0.136462,0.081365,0.014545,-0.009384,0.525059,0.044001,-0.149035,0.074777,-0.005374,0.008911,0.525065,0.003049,0.010707,-0.071125,-0.104467,0.511918,-0.054711,-1.841441,-0.102481,0.456309,0.248612,0.576244,2.488536,-2.248121,-0.746623,0.769476,1.442022,1.209124,-1.292901,0.000552,-0.000907,0.001769,0.002349,-0.005804,0.001728,-0.000775,-0.000778,-0.000776,-0.000771,0.000599,0.059652
0.534899,-0.136464,0.081365,0.014545,-0.009383,0.525059,0.044001,-0.149037,0.074777,-0.005375,0.008912,0.525065,0.003047,0.010707,-0.071126,-0.104469,0.511918,-0.054711,-1.841438,-0.102475,0.456314,0.248609,0.576245,2.488537,-2.248123,-0.746620,0.769478,1.442002,1.209123,-1.292908,0.000645,0.001951,-0.003097,-0.000716,-0.001280,-0.000975,-0.000775,-0.000778,-0.000775,-0.000771,0.000599,0.059658
0.536857,-0.136465,0.081366,0.014547,-0.009383,0.525060,0.044001,-0.149038,0.074777,-0.005375,0.008913,0.525065,0.003045,0.010707,-0.071127,-0.104471,0.511919,-0.054711,-1.841435,-0.102469,0.456318,0.248607,0.576247,2.488537,-2.248124,-0.746620,0.769481,1.441985,1.209119,-1.292912,0.000732,0.001327,-0.004239,-0.000425,0.007556,0.002247,-0.000775,-0.000778,-0.000776,-0.000771,0.000599,0.059663
0.538853,-0.136465,0.081366,0.014547,-0.009383,0.525060,0.044001,-0.149038,0.074777,-0.005375,0.008913,0.525065,0.003045,0.010707,-0.071127,-0.104471,0.511919,-0.054711,-1.841435,-0.102469,0.456318,0.248607,0.576247,2.488537,-2.248124,-0.746620,0.769481,1.441985,1.209119,-1.292912,0.000732,0.001327,-0.004239,-0.000425,0.007556,0.002247,-0.000775,-0.000778,-0.000776,-0.000771,0.000599,0.059669
0.540839,-0.136465,0.081365,0.014544,-0.009384,0.525059,0.044001,-0.149038,0.074777,-0.005377,0.008911,0.525065,0.003043,0.010706,-0.071128,-0.104474,0.511919,-0.054711,-1.841432,-0.102463,0.456323,0.248605,0.576248,2.488537,-2.248127,-0.746619,0.769484,1.441969,1.209120,-1.292911,0.000806,-0.002101,-0.002360,0.002572,0.008985,0.000569,-0.000775,-0.000778,-0.000776,-0.000771,0.000599,0.059669
0.542839,-0.136466,0.081365,0.014543,-0.009384,0.525059,0.044001,-0.149038,0.074777,-0.005378,0.008910,0.525065,0.003042,0.010705,-0.071129,-0.104476,0.511919,-0.054711,-1.841429,-0.102458,0.456328,0.248602,0.576249,2.488539,-2.248128,-0.746617,0.769486,1.441954,1.209125,-1.292907,0.000871,-0.002099,0.001925,0.002070,0.004435,-0.005048,-0.000775,-0.000778,-0.000776,-0.000771,0.000599,0.059674
0.544879,-0.136466,0.081365,0.014543,-0.009384,0.525059,0.044001,-0.149038,0.074777,-0.005378,0.008910,0.525065,0.003042,0.010705,-0.071129,-0.104476,0.511919,-0.054711,-1.841429,-0.102458,0.456328,0.248602,0.576249,2.488539,-2.248128,-0.746617,0.769486,1.441954,1.209125,-1.292907,0.000871,-0.002099,0.001925,0.002070,0.004435,-0.005048,-0.000775,-0.000778,-0.000776,-0.000771,0.000599,0.059674
0.546810,-0.136466,0.081365,0.014543,-0.009384,0.525059,0.044001,-0.149038,0.074777,-0.005378,0.008910,0.525065,0.003042,0.010705,-0.071129,-0.104476,0.511919,-0.054711,-1.841429,-0.102458,0.456328,0.248602,0.576249,2.488539,-2.248128,-0.746617,0.769486,1.441954,1.209125,-1.292907,0.000871,-0.002099,0.001925,0.002070,0.004435,-0.005048,-0.000775,-0.000778,-0.000776,-0.000771,0.000599,0.059674
0.548842,-0.136466,0.081365,0.014543,-0.009384,0.525059,0.044001,-0.149038,0.074777,-0.005378,0.008910,0.525065,0.003042,0.010705,-0.071129,-0.104476,0.511919,-0.054711,-1.841429,-0.102458,0.456328,0.248602,0.576249,2.488539,-2.248128,-0.746617,0.769486,1.441954,1.209125,-1.292907,0.000871,-0.002099,0.001925,0.002070,0.004435,-0.005048,-0.000775,-0.000778,-0.000776,-0.000771,0.000599,0.059674
0.550872,-0.136466,0.081365,0.014543,-0.009384,0.525059,0.044001,-0.149038,0.074777,-0.005378,0.008910,0.525065,0.003042,0.010705,-0.071129,-0.104476,0.511919,-0.054711,-1.841429,-0.102458,0.456328,0.248602,0.576249,2.488539,-2.248128,-0.746617,0.769486,1.441954,1.209125,-1.292907,0.000871,-0.002099,0.001925,0.002070,0.004435,-0.005048,-0.000775,-0.000778,-0.000776,-0.000771,0.000599,0.059674
0.552883,-0.136468,0.081366,0.014546,-0.009385,0.525059,0.044001,-0.149039,0.074778,-0.005381,0.008909,0.525065,0.003038,0.010704,-0.071130,-0.104480,0.511919,-0.054711,-1.841424,-0.102446,0.456338,0.248597,0.576251,2.488544,-2.248132,-0.746611,0.769493,1.441930,1.209135,-1.292889,0.000928,-0.000000,-0.000018,-0.001168,-0.005372,0.001374,-0.000775,-0.000778,-0.000776,-0.000771,0.000599,0.059685
0.554810,-0.136470,0.081366,0.014545,-0.009383,0.525059,0.044001,-0.149040,0.074778,-0.005382,0.008908,0.525065,0.003036,0.010703,-0.071131,-0.104482,0.511920,-0.054711,-1.841421,-0.102440,0.456343,0.248595,0.576252,2.488543,-2.248132,-0.746612,0.769495,1.441919,1.209134,-1.292888,0.000976,0.002227,0.000746,0.001668,-0.002074,0.001148,-0.000775,-0.000778,-0.000776,-0.000771,0.000599,0.059691
0.556865,-0.136470,0.081366,0.014545,-0.009383,0.525059,0.044001,-0.149040,0.074778,-0.005382,0.008908,0.525065,0.003036,0.010703,-0.071131,-0.104482,0.511920,-0.054711,-1.841421,-0.102440,0.456343,0.248595,0.576252,2.488543,-2.248132,-0.746612,0.769495,1.441919,1.209134,-1.292888,0.000976,0.002227,0.000746,0.001668,-0.002074,0.001148,-0.000775,-0.000778,-0.000776,-0.000771,0.000599,0.059691
0.558875,-0.136471,0.081365,0.014540,-0.009383,0.525060,0.044000,-0.149042,0.074777,-0.005384,0.008909,0.525064,0.003034,0.010703,-0.071132,-0.104484,0.511920,-0.054711,-1.841418,-0.102434,0.456348,0.248593,0.576253,2.488544,-2.248134,-0.746610,0.769498,1.441907,1.209134,-1.292830,0.000885,0.001073,-0.001572,0.001024,0.005302,-0.004055,-0.000775,-0.000778,-0.000776,-0.000771,0.000599,0.059697
0.560902,-0.136473,0.081365,0.014537,-0.009382,0.525060,0.043999,-0.149043,0.074777,-0.005385,0.008909,0.525064,0.003032,0.010704,-0.071133,-0.104486,0.511920,-0.054711,-1.841415,-0.102428,0.456352,0.248590,0.576255,2.488545,-2.248137,-0.746606,0.769501,1.441895,1.209136,-1.292783,0.000808,-0.002773,-0.000672,-0.002408,0.006858,-0.003311,-0.000775,-0.000778,-0.000775,-0.000771,0.000599,0.059702
0.562920,-0.136474,0.081365,0.014538,-0.009382,0.525060,0.043999,-0.149044,0.074777,-0.005386,0.008909,0.525064,0.003031,0.010704,-0.071133,-0.104488,0.511920,-0.054711,-1.841412,-0.102422,0.456357,0.248588,0.576256,2.488547,-2.248137,-0.746605,0.769503,1.441879,1.209138,-1.292777,0.000845,-0.003090,0.002834,-0.002396,0.003591,0.002260,-0.000775,-0.000778,-0.000776,-0.000771,0.000599,0.059708
0.564834,-0.136475,0.081365,0.014541,-0.009382,0.525060,0.044000,-0.149045,0.074778,-0.005386,0.008909,0.525064,0.003029,0.010704,-0.071134,-0.104490,0.511920,-0.054711,-1.841410,-0.102417,0.456362,0.248585,0.576257,2.488550,-2.248137,-0.746603,0.769503,1.441862,1.209140,-1.292770,0.000882,-0.000574,0.002742,0.000383,-0.004099,0.001327,-0.000775,-0.000778,-0.000776,-0.000771,0.000599,0.059713
0.566827,-0.136476,0.081366,0.014546,-0.009383,0.525060,0.044001,-0.149046,0.074778,-0.005387,0.008909,0.525064,0.003027,0.010704,-0.071135,-0.104492,0.511920,-0.054711,-1.841407,-0.102411,0.456367,0.248583,0.576258,2.488553,-2.248138,-0.746601,0.769503,1.441846,1.209141,-1.292742,0.000859,0.004221,-0.000258,-0.000297,-0.005718,-0.004348,-0.000775,-0.000778,-0.000775,-0.000771,0.000599,0.059719
0.568851,-0.136476,0.081366,0.014545,-0.009384,0.525059,0.044001,-0.149048,0.074778,-0.005388,0.008910,0.525064,0.003025,0.010704,-0.071136,-0.104494,0.511920,-0.054711,-1.841404,-0.102405,0.456372,0.248580,0.576259,2.488551,-2.248140,-0.746602,0.769506,1.441833,1.209140,-1.292718,0.000837,0.005116,0.000086,0.001921,-0.001885,-0.003464,-0.000775,-0.000778,-0.000776,-0.000771,0.000599,0.059724
0.570858,-0.136477,0.081366,0.014546,-0.009385,0.525059,0.044001,-0.149050,0.074778,-0.005388,0.008911,0.525065,0.003023,0.010703,-0.071137,-0.104497,0.511921,-0.054711,-1.841401,-0.102399,0.456377,0.248578,0.576260,2.488550,-2.248143,-0.746601,0.769511,1.441820,1.209139,-1.292647,0.000699,0.002849,-0.002569,0.000781,0.006365,0.002645,-0.000775,-0.000778,-0.000776,-0.000771,0.000599,0.059730
0.572835,-0.136477,0.081366,0.014546,-0.009385,0.525059,0.044001,-0.149050,0.074778,-0.005388,0.008911,0.525065,0.003023,0.010703,-0.071137,-0.104497,0.511921,-0.054711,-1.841401,-0.102399,0.456377,0.248578,0.576260,2.488550,-2.248143,-0.746601,0.769511,1.441820,1.209139,-1.292647,0.000699,0.002849,-0.002569,0.000781,0.006365,0.002645,-0.000775,-0.000778,-0.000776,-0.000771,0.000599,0.059730
0.574863,-0.136477,0.081366,0.014546,-0.009385,0.525059,0.044001,-0.149050,0.074778,-0.005388,0.008911,0.525065,0.003023,0.010703,-0.071137,-0.104497,0.511921,-0.054711,-1.841401,-0.102399,0.456377,0.248578,0.576260,2.488550,-2.248143,-0.746601,0.769511,1.441820,1.209139,-1.292647,0.000699,0.002849,-0.002569,0.000781,0.006365,0.002645,-0.000775,-0.000778,-0.000776,-0.000771,0.000599,0.059730
0.576940,-0.136477,0.081366,0.014546,-0.009385,0.525059,0.044001,-0.149050,0.074778,-0.005388,0.008911,0.525065,0.003023,0.010703,-0.071137,-0.104497,0.511921,-0.054711,-1.841401,-0.102399,0.456377,0.248578,0.576260,2.488550,-2.248143,-0.746601,0.769511,1.441820,1.209139,-1.292647,0.000699,0.002849,-0.002569,0.000781,0.006365,0.002645,-0.000775,-0.000778,-0.000776,-0.000771,0.000599,0.059730
0.578873,-0.136477,0.081366,0.014546,-0.009385,0.525059,0.044001,-0.149050,0.074778,-0.005388,0.008911,0.525065,0.003023,0.010703,-0.071137,-0.104497,0.511921,-0.054711,-1.841401,-0.102399,0.456377,0.248578,0.576260,2.488550,-2.248143,-0.746601,0.769511,1.441820,1.209139,-1.292647,0.000699,0.002849,-0.002569,0.000781,0.006365,0.002645,-0.000775,-0.000778,-0.000776,-0.000771,0.000599,0.059730
0.580884,-0.136477,0.081366,0.014546,-0.009385,0.525059,0.044001,-0.149050,0.074778,-0.005388,0.008911,0.525065,0.003023,0.010703,-0.071137,-0.104497,0.511921,-0.054711,-1.841401,-0.102399,0.456377,0.248578,0.576260,2.488550,-2.248143,-0.746601,0.769511,1.441820,1.209139,-1.292647,0.000699,0.002849,-0.002569,0.000781,0.006365,0.002645,-0.000775,-0.000778,-0.000776,-0.000771,0.000599,0.059730
0.582871,-0.136478,0.081366,0.014546,-0.009384,0.525059,0.044001,-0.149051,0.074778,-0.005389,0.008911,0.525065,0.003021,0.010703,-0.071138,-0.104498,0.511921,-0.054711,-1.841398,-0.102393,0.456382,0.248576,0.576262,2.488551,-2.248146,-0.746598,0.769514,1.441806,1.209140,-1.292589,0.000581,-0.001891,-0.001938,-0.003048,0.008093,0.002048,-0.000775,-0.000778,-0.000776,-0.000771,0.000599,0.059735
0.584872,-0.136480,0.081366,0.014545,-0.009383,0.525060,0.044000,-0.149053,0.074778,-0.005390,0.008912,0.525065,0.003020,0.010703,-0.071139,-0.104500,0.511921,-0.054711,-1.841395,-0.102387,0.456387,0.248573,0.576263,2.488553,-2.248147,-0.746596,0.769514,1.441792,1.209144,-1.292557,0.000543,-0.002939,0.001343,-0.003339,0.003756,-0.002678,-0.000775,-0.000778,-0.000776,-0.000771,0.000599,0.059741
0.586855,-0.136482,0.081366,0.014547,-0.009382,0.525060,0.044001,-0.149055,0.074778,-0.005391,0.008913,0.525065,0.003018,0.010702,-0.071140,-0.104502,0.511921,-0.054711,-1.841393,-0.102381,0.456391,0.248571,0.576264,2.488555,-2.248147,-0.746594,0.769515,1.441779,1.209148,-1.292530,0.000519,-0.001012,0.001072,-0.000777,-0.004281,-0.001454,-0.000775,-0.000778,-0.000776,-0.000771,0.000599,0.059746
0.588898,-0.136483,0.081366,0.014543,-0.009382,0.525060,0.044000,-0.149056,0.074778,-0.005391,0.008914,0.525065,0.003016,0.010703,-0.071140,-0.104503,0.511921,-0.054711,-1.841390,-0.102375,0.456396,0.248568,0.576265,2.488556,-2.248147,-0.746595,0.769518,1.441769,1.209149,-1.292507,0.000499,0.003316,-0.002065,0.004061,-0.005758,0.005031,-0.000775,-0.000778,-0.000776,-0.000771,0.000599,0.059752
0.590852,-0.136484,0.081366,0.014543,-0.009382,0.525060,0.044000,-0.149058,0.074778,-0.005392,0.008914,0.525065,0.003014,0.010703,-0.071141,-0.104506,0.511921,-0.054711,-1.841387,-0.102370,0.456401,0.248566,0.576266,2.488556,-2.248148,-0.746594,0.769521,1.441758,1.209149,-1.292462,0.000421,0.003890,-0.001834,0.005042,-0.002354,0.005263,-0.000775,-0.000778,-0.000776,-0.000771,0.000599,0.059757
0.592831,-0.136485,0.081366,0.014544,-0.009382,0.525060,0.044000,-0.149057,0.074778,-0.005394,0.008912,0.525065,0.003012,0.010702,-0.071142,-0.104508,0.511922,-0.054711,-1.841384,-0.102364,0.456406,0.248563,0.576267,2.488557,-2.248150,-0.746592,0.769522,1.441746,1.209148,-1.292405,0.000305,0.001439,0.001117,0.002914,0.005097,0.000429,-0.000775,-0.000778,-0.000776,-0.000771,0.000599,0.059763
0.594869,-0.136486,0.081366,0.014547,-0.009383,0.525060,0.044001,-0.149056,0.074778,-0.005396,0.008909,0.525065,0.003011,0.010702,-0.071143,-0.104511,0.511921,-0.054711,-1.841381,-0.102358,0.456411,0.248561,0.576268,2.488560,-2.248152,-0.746587,0.769524,1.441735,1.209151,-1.292326,0.000135,-0.003453,0.000576,-0.001722,0.006717,0.001467,-0.000775,-0.000778,-0.000775,-0.000771,0.000599,0.059768
0.596877,-0.136486,0.081366,0.014545,-0.009383,0.525059,0.044000,-0.149056,0.074778,-0.005397,0.008908,0.525065,0.003009,0.010703,-0.071143,-0.104513,0.511921,-0.054711,-1.841379,-0.102352,0.456416,0.248559,0.576270,2.488564,-2.248154,-0.746582,0.769524,1.441722,1.209153,-1.292260,0.000004,-0.004622,-0.002775,-0.002691,0.003061,-0.003150,-0.000775,-0.000778,-0.000775,-0.000771,0.000599,0.059774
0.598953,-0.136486,0.081366,0.014539,-0.009384,0.525059,0.043999,-0.149057,0.074778,-0.005398,0.008907,0.525065,0.003007,0.010702,-0.071144,-0.104515,0.511922,-0.054711,-1.841376,-0.102346,0.456421,0.248556,0.576271,2.488565,-2.248157,-0.746579,0.769541,1.441636,1.209146,-1.292332,0.000703,-0.002705,-0.002617,-0.000623,-0.004460,-0.001835,-0.000775,-0.000778,-0.000775,-0.000771,0.000599,0.059779
0.600915,-0.136486,0.081365,0.014536,-0.009386,0.525059,0.043998,-0.149058,0.074778,-0.005399,0.008907,0.525065,0.003005,0.010702,-0.071144,-0.104517,0.511922,-0.054711,-1.841373,-0.102340,0.456426,0.248554,0.576272,2.488565,-2.248158,-0.746581,0.769557,1.441562,1.209138,-1.292411,0.001352,0.001614,0.000287,0.003810,-0.005515,0.004717,-0.000775,-0.000778,-0.000776,-0.000771,0.000599,0.059785
0.602925,-0.136486,0.081365,0.014536,-0.009386,0.525059,0.043998,-0.149058,0.074778,-0.005399,0.008907,0.525065,0.003005,0.010702,-0.071144,-0.104517,0.511922,-0.054711,-1.841373,-0.102340,0.456426,0.248554,0.576272,2.488565,-2.248158,-0.746581,0.769557,1.441562,1.209138,-1.292411,0.001352,0.001614,0.000287,0.003810,-0.005515,0.004717,-0.000775,-0.000778,-0.000776,-0.000771,0.000599,0.059785
0.604857,-0.136486,0.081365,0.014536,-0.009386,0.525059,0.043998,-0.149058,0.074778,-0.005399,0.008907,0.525065,0.003005,0.010702,-0.071144,-0.104517,0.511922,-0.054711,-1.841373,-0.102340,0.456426,0.248554,0.576272,2.488565,-2.248158,-0.746581,0.769557,1.441562,1.209138,-1.292411,0.001352,0.001614,0.000287,0.003810,-0.005515,0.004717,-0.000775,-0.000778,-0.000776,-0.000771,0.000599,0.059785
0.606824,-0.136486,0.081365,0.014536,-0.009386,0.525059,0.043998,-0.149058,0.074778,-0.005399,0.008907,0.525065,0.003005,0.010702,-0.071144,-0.104517,0.511922,-0.054711,-1.841373,-0.102340,0.456426,0.248554,0.576272,2.488565,-2.248158,-0.746581,0.769557,1.441562,1.209138,-1.292411,0.001352,0.001614,0.000287,0.003810,-0.005515,0.004717,-0.000775,-0.000778,-0.000776,-0.000771,0.000599,0.059785
0.608855,-0.136486,0.081365,0.014536,-0.009386,0.525059,0.043998,-0.149058,0.074778,-0.005399,0.008907,0.525065,0.003005,0.010702,-0.071144,-0.104517,0.511922,-0.054711,-1.841373,-0.102340,0.456426,0.248554,0.576272,2.488565,-2.248158,-0.746581,0.769557,1.441562,1.209138,-1.292411,0.001352,0.001614,0.000287,0.003810,-0.005515,0.004717,-0.000775,-0.000778,-0.000776,-0.000771,0.000599,0.059785
0.610896,-0.136486,0.081365,0.014536,-0.009386,0.525059,0.043998,-0.149058,0.074778,-0.005399,0.008907,0.525065,0.003005,0.010702,-0.071144,-0.104517,0.511922,-0.054711,-1.841373,-0.102340,0.456426,0.248554,0.576272,2.488565,-2.248158,-0.746581,0.769557,1.441562,1.209138,-1.292411,0.001352,0.001614,0.000287,0.003810,-0.005515,0.004717,-0.000775,-0.000778,-0.000776,-0.000771,0.000599,0.059785
0.612889,-0.136486,0.081365,0.014536,-0.009387,0.525059,0.043998,-0.149059,0.074778,-0.005400,0.008907,0.525065,0.003003,0.010701,-0.071145,-0.104519,0.511922,-0.054711,-1.841370,-0.102334,0.456430,0.248551,0.576273,2.488566,-2.248160,-0.746578,0.769570,1.441496,1.209131,-1.292426,0.001770,0.002165,-0.000311,0.004446,-0.001755,0.004998,-0.000775,-0.000778,-0.000776,-0.000771,0.000599,0.059790
0.614877,-0.136486,0.081365,0.014539,-0.009388,0.525059,0.043998,-0.149059,0.074778,-0.005401,0.008907,0.525065,0.003001,0.010701,-0.071146,-0.104522,0.511923,-0.054711,-1.841367,-0.102328,0.456435,0.248549,0.576274,2.488567,-2.248163,-0.746575,0.769580,1.441441,1.209124,-1.292431,0.002088,-0.000307,0.001968,0.002037,0.005987,0.000200,-0.000775,-0.000778,-0.000776,-0.000771,0.000599,0.059796
0.616814,-0.136486,0.081366,0.014543,-0.009389,0.525059,0.043999,-0.149060,0.074778,-0.005402,0.008907,0.525065,0.002999,0.010701,-0.071147,-0.104524,0.511923,-0.054711,-1.841364,-0.102322,0.456440,0.248546,0.576275,2.488569,-2.248166,-0.746570,0.769589,1.441393,1.209119,-1.292434,0.002349,0.000471,0.000886,-0.002826,0.007844,0.001265,-0.000775,-0.000778,-0.000776,-0.000771,0.000599,0.059802
0.619271,-0.136487,0.081366,0.014545,-0.009389,0.525059,0.043999,-0.149061,0.074778,-0.005402,0.008907,0.525065,0.002997,0.010701,-0.071148,-0.104526,0.511922,-0.054711,-1.841362,-0.102317,0.456445,0.248544,0.576277,2.488574,-2.248168,-0.746563,0.769595,1.441353,1.209118,-1.292435,0.002548,-0.001814,-0.002907,-0.003972,0.003607,-0.002132,-0.000775,-0.000778,-0.000775,-0.000771,0.000599,0.059807
0.620833,-0.136489,0.081366,0.014546,-0.009388,0.525059,0.043999,-0.149062,0.074778,-0.005403,0.008907,0.525065,0.002995,0.010701,-0.071148,-0.104527,0.511922,-0.054711,-1.841359,-0.102311,0.456450,0.248542,0.576278,2.488577,-2.248168,-0.746560,0.769601,1.441309,1.209118,-1.292476,0.002827,-0.000870,-0.003175,-0.002090,-0.004365,0.000161,-0.000775,-0.000778,-0.000775,-0.000771,0.000599,0.059813
0.622862,-0.136492,0.081366,0.014545,-0.009386,0.525059,0.043999,-0.149064,0.074778,-0.005404,0.008908,0.525065,0.002994,0.010701,-0.071149,-0.104529,0.511923,-0.054711,-1.841356,-0.102305,0.456455,0.248539,0.576279,2.488578,-2.248167,-0.746560,0.769605,1.441270,1.209113,-1.292522,0.003095,0.002664,-0.000612,0.002197,-0.006246,-0.002920,-0.000775,-0.000778,-0.000776,-0.000771,0.000599,0.059818
0.624830,-0.136495,0.081366,0.014544,-0.009383,0.525060,0.043999,-0.149065,0.074778,-0.005406,0.008908,0.525065,0.002992,0.010700,-0.071149,-0.104530,0.511923,-0.054711,-1.841353,-0.102299,0.456460,0.248537,0.576280,2.488578,-2.248167,-0.746560,0.769611,1.441237,1.209109,-1.292548,0.003271,0.002597,0.004216,0.002734,-0.002643,0.000052,-0.000775,-0.000778,-0.000776,-0.000771,0.000599,0.059824
0.626855,-0.136498,0.081366,0.014544,-0.009381,0.525060,0.044000,-0.149067,0.074778,-0.005407,0.008908,0.525065,0.002990,0.010700,-0.071150,-0.104531,0.511923,-0.054711,-1.841350,-0.102293,0.456464,0.248534,0.576281,2.488580,-2.248169,-0.746556,0.769615,1.441206,1.209106,-1.292519,0.003288,-0.000387,0.005175,0.000233,0.004956,-0.002584,-0.000775,-0.000778,-0.000776,-0.000771,0.000599,0.059829
0.628836,-0.136499,0.081366,0.014541,-0.009380,0.525060,0.043999,-0.149069,0.074778,-0.005407,0.008910,0.525065,0.002988,0.010699,-0.071151,-0.104533,0.511923,-0.054711,-1.841347,-0.102287,0.456469,0.248532,0.576282,2.488579,-2.248172,-0.746553,0.769621,1.441179,1.209105,-1.292494,0.003298,-0.000022,0.003028,-0.000681,0.006674,0.000220,-0.000775,-0.000778,-0.000776,-0.000771,0.000599,0.059835
0.630837,-0.136501,0.081366,0.014540,-0.009380,0.525060,0.043998,-0.149070,0.074778,-0.005408,0.008911,0.525065,0.002986,0.010699,-0.071152,-0.104534,0.511923,-0.054711,-1.841345,-0.102281,0.456474,0.248530,0.576284,2.488580,-2.248174,-0.746548,0.769625,1.441154,1.209108,-1.292471,0.003290,0.000097,-0.001624,0.001350,0.002298,-0.001768,-0.000775,-0.000778,-0.000776,-0.000771,0.000599,0.059840
0.632854,-0.136501,0.081366,0.014540,-0.009380,0.525060,0.043998,-0.149070,0.074778,-0.005408,0.008911,0.525065,0.002986,0.010699,-0.071152,-0.104534,0.511923,-0.054711,-1.841345,-0.102281,0.456474,0.248530,0.576284,2.488580,-2.248174,-0.746548,0.769625,1.441154,1.209108,-1.292471,0.003290,0.000097,-0.001624,0.001350,0.002298,-0.001768,-0.000775,-0.000778,-0.000776,-0.000771,0.000599,0.059840
0.634825,-0.136501,0.081366,0.014540,-0.009380,0.525060,0.043998,-0.149070,0.074778,-0.005408,0.008911,0.525065,0.002986,0.010699,-0.071152,-0.104534,0.511923,-0.054711,-1.841345,-0.102281,0.456474,0.248530,0.576284,2.488580,-2.248174,-0.746548,0.769625,1.441154,1.209108,-1.292471,0.003290,0.000097,-0.001624,0.001350,0.002298,-0.001768,-0.000775,-0.000778,-0.000776,-0.000771,0.000599,0.059840
0.636843,-0.136501,0.081366,0.014540,-0.009380,0.525060,0.043998,-0.149070,0.074778,-0.005408,0.008911,0.525065,0.002986,0.010699,-0.071152,-0.104534,0.511923,-0.054711,-1.841345,-0.102281,0.456474,0.248530,0.576284,2.488580,-2.248174,-0.746548,0.769625,1.441154,1.209108,-1.292471,0.003290,0.000097,-0.001624,0.001350,0.002298,-0.001768,-0.000775,-0.000778,-0.000776,-0.000771,0.000599,0.059840
0.638866,-0.136501,0.081366,0.014540,-0.009380,0.525060,0.043998,-0.149070,0.074778,-0.005408,0.008911,0.525065,0.002986,0.010699,-0.071152,-0.104534,0.511923,-0.054711,-1.841345,-0.102281,0.456474,0.248530,0.576284,2.488580,-2.248174,-0.746548,0.769625,1.441154,1.209108,-1.292471,0.003290,0.000097,-0.001624,0.001350,0.002298,-0.001768,-0.000775,-0.000778,-0.000776,-0.000771,0.000599,0.059840
0.640861,-0.136501,0.081366,0.014540,-0.009380,0.525060,0.043998,-0.149070,0.074778,-0.005408,0.008911,0.525065,0.002986,0.010699,-0.071152,-0.104534,0.511923,-0.054711,-1.841345,-0.102281,0.456474,0.248530,0.576284,2.488580,-2.248174,-0.746548,0.769625,1.441154,1.209108,-1.292471,0.003290,0.000097,-0.001624,0.001350,0.002298,-0.001768,-0.000775,-0.000778,-0.000776,-0.000771,0.000599,0.059840
0.642843,-0.136503,0.081366,0.014545,-0.009379,0.525060,0.043999,-0.149073,0.074778,-0.005409,0.008912,0.525065,0.002983,0.010698,-0.071154,-0.104537,0.511923,-0.054711,-1.841339,-0.102270,0.456484,0.248525,0.576286,2.488582,-2.248177,-0.746542,0.769631,1.441111,1.209112,-1.292449,0.003289,-0.002207,-0.000630,0.001815,-0.007780,-0.000513,-0.000775,-0.000778,-0.000776,-0.000771,0.000599,0.059851
0.644863,-0.136504,0.081366,0.014543,-0.009380,0.525060,0.043999,-0.149075,0.074778,-0.005410,0.008913,0.525066,0.002981,0.010699,-0.071154,-0.104539,0.511924,-0.054711,-1.841336,-0.102264,0.456489,0.248522,0.576287,2.488581,-2.248177,-0.746543,0.769636,1.441093,1.209110,-1.292445,0.003297,0.000974,0.003731,0.000301,-0.004279,0.003193,-0.000775,-0.000778,-0.000776,-0.000771,0.000599,0.059857
0.646881,-0.136505,0.081366,0.014544,-0.009380,0.525060,0.043999,-0.149077,0.074778,-0.005410,0.008914,0.525066,0.002979,0.010699,-0.071156,-0.104541,0.511924,-0.054711,-1.841333,-0.102258,0.456494,0.248520,0.576288,2.488581,-2.248179,-0.746540,0.769639,1.441074,1.209109,-1.292385,0.003161,0.000599,0.004314,-0.003853,0.003230,0.001148,-0.000775,-0.000778,-0.000776,-0.000771,0.000599,0.059862
0.648834,-0.136505,0.081366,0.014544,-0.009380,0.525060,0.043999,-0.149077,0.074778,-0.005410,0.008914,0.525066,0.002979,0.010699,-0.071156,-0.104541,0.511924,-0.054711,-1.841333,-0.102258,0.456494,0.248520,0.576288,2.488581,-2.248179,-0.746540,0.769639,1.441074,1.209109,-1.292385,0.003161,0.000599,0.004314,-0.003853,0.003230,0.001148,-0.000775,-0.000778,-0.000776,-0.000771,0.000599,0.059862
0.651507,-0.136505,0.081367,0.014547,-0.009381,0.525060,0.043999,-0.149078,0.074778,-0.005411,0.008914,0.525066,0.002977,0.010700,-0.071157,-0.104543,0.511924,-0.054711,-1.841331,-0.102252,0.456498,0.248517,0.576289,2.488583,-2.248181,-0.746535,0.769640,1.441055,1.209109,-1.292336,0.003035,-0.002623,0.001870,-0.004412,0.004422,-0.005995,-0.000775,-0.000778,-0.000775,-0.000771,0.000599,0.059868
0.652909,-0.136505,0.081366,0.014545,-0.009382,0.525060,0.043999,-0.149080,0.074778,-0.005411,0.008915,0.525066,0.002976,0.010701,-0.071158,-0.104545,0.511924,-0.054711,-1.841328,-0.102246,0.456503,0.248515,0.576290,2.488585,-2.248182,-0.746531,0.769642,1.441038,1.209110,-1.292295,0.002936,-0.002450,-0.003019,-0.002070,0.000931,-0.006760,-0.000775,-0.000778,-0.000775,-0.000771,0.000599,0.059873
0.654843,-0.136506,0.081366,0.014545,-0.009383,0.525060,0.043999,-0.149079,0.074778,-0.005413,0.008912,0.525066,0.002974,0.010701,-0.071158,-0.104548,0.511924,-0.054711,-1.841325,-0.102240,0.456508,0.248512,0.576292,2.488588,-2.248182,-0.746530,0.769644,1.441017,1.209111,-1.292289,0.002935,0.000474,-0.004170,0.002600,-0.006453,-0.002358,-0.000775,-0.000778,-0.000775,-0.000771,0.000599,0.059879
0.656840,-0.136506,0.081367,0.014548,-0.009383,0.525060,0.043999,-0.149078,0.074778,-0.005415,0.008910,0.525065,0.002972,0.010701,-0.071158,-0.104551,0.511925,-0.054711,-1.841322,-0.102234,0.456513,0.248510,0.576293,2.488590,-2.248182,-0.746529,0.769647,1.440998,1.209111,-1.292266,0.002879,-0.000102,-0.002302,0.003448,-0.007417,0.006674,-0.000775,-0.000778,-0.000775,-0.000771,0.000599,0.059884
0.658883,-0.136506,0.081366,0.014545,-0.009385,0.525059,0.043999,-0.149078,0.074778,-0.005416,0.008908,0.525065,0.002970,0.010700,-0.071159,-0.104553,0.511925,-0.054711,-1.841319,-0.102229,0.456518,0.248508,0.576294,2.488588,-2.248184,-0.746530,0.769650,1.440981,1.209109,-1.292246,0.002824,0.002211,0.001975,0.001214,-0.003619,0.008949,-0.000775,-0.000778,-0.000776,-0.000771,0.000599,0.059890
0.660830,-0.136506,0.081366,0.014541,-0.009385,0.525059,0.043998,-0.149078,0.074778,-0.005417,0.008908,0.525065,0.002968,0.010699,-0.071160,-0.104556,0.511925,-0.054711,-1.841316,-0.102223,0.456523,0.248505,0.576295,2.488588,-2.248187,-0.746527,0.769654,1.440963,1.209108,-1.292173,0.002639,0.001097,0.002494,-0.003520,0.004144,0.005751,-0.000775,-0.000778,-0.000775,-0.000771,0.000599,0.059895
0.662871,-0.136506,0.081366,0.014541,-0.009385,0.525059,0.043998,-0.149078,0.074778,-0.005417,0.008908,0.525065,0.002968,0.010699,-0.071160,-0.104556,0.511925,-0.054711,-1.841316,-0.102223,0.456523,0.248505,0.576295,2.488588,-2.248187,-0.746527,0.769654,1.440963,1.209108,-1.292173,0.002639,0.001097,0.002494,-0.003520,0.004144,0.005751,-0.000775,-0.000778,-0.000775,-0.000771,0.000599,0.059895
0.664856,-0.136506,0.081366,0.014541,-0.009385,0.525059,0.043998,-0.149078,0.074778,-0.005417,0.008908,0.525065,0.002968,0.010699,-0.071160,-0.104556,0.511925,-0.054711,-1.841316,-0.102223,0.456523,0.248505,0.576295,2.488588,-2.248187,-0.746527,0.769654,1.440963,1.209108,-1.292173,0.002639,0.001097,0.002494,-0.003520,0.004144,0.005751,-0.000775,-0.000778,-0.000775,-0.000771,0.000599,0.059895
0.666849,-0.136506,0.081366,0.014541,-0.009385,0.525059,0.043998,-0.149078,0.074778,-0.005417,0.008908,0.525065,0.002968,0.010699,-0.071160,-0.104556,0.511925,-0.054711,-1.841316,-0.102223,0.456523,0.248505,0.576295,2.488588,-2.248187,-0.746527,0.769654,1.440963,1.209108,-1.292173,0.002639,0.001097,0.002494,-0.003520,0.004144,0.005751,-0.000775,-0.000778,-0.000775,-0.000771,0.000599,0.059895
0.668891,-0.136506,0.081366,0.014541,-0.009385,0.525059,0.043998,-0.149078,0.074778,-0.005417,0.008908,0.525065,0.002968,0.010699,-0.071160,-0.104556,0.511925,-0.054711,-1.841316,-0.102223,0.456523,0.248505,0.576295,2.488588,-2.248187,-0.746527,0.769654,1.440963,1.209108,-1.292173,0.002639,0.001097,0.002494,-0.003520,0.004144,0.005751,-0.000775,-0.000778,-0.000775,-0.000771,0.000599,0.059895
0.670874,-0.136506,0.081366,0.014541,-0.009385,0.525059,0.043998,-0.149078,0.074778,-0.005417,0.008908,0.525065,0.002968,0.010699,-0.071160,-0.104556,0.511925,-0.054711,-1.841316,-0.102223,0.456523,0.248505,0.576295,2.488588,-2.248187,-0.746527,0.769654,1.440963,1.209108,-1.292173,0.002639,0.001097,0.002494,-0.003520,0.004144,0.005751,-0.000775,-0.000778,-0.000775,-0.000771,0.000599,0.059895
0.673449,-0.136507,0.081366,0.014541,-0.009385,0.525059,0.043998,-0.149079,0.074778,-0.005418,0.008907,0.525065,0.002966,0.010699,-0.071161,-0.104558,0.511925,-0.054711,-1.841314,-0.102217,0.456528,0.248503,0.576296,2.488590,-2.248190,-0.746523,0.769655,1.440945,1.209107,-1.292112,0.002476,-0.002727,0.000001,-0.004561,0.005553,-0.002319,-0.000775,-0.000778,-0.000775,-0.000771,0.000599,0.059901
0.674893,-0.136508,0.081366,0.014543,-0.009386,0.525059,0.043998,-0.149079,0.074778,-0.005419,0.008907,0.525065,0.002964,0.010698,-0.071162,-0.104560,0.511925,-0.054711,-1.841311,-0.102211,0.456533,0.248500,0.576297,2.488591,-2.248190,-0.746521,0.769656,1.440922,1.209107,-1.292095,0.002440,-0.003027,0.000770,-0.002609,0.002240,-0.003830,-0.000775,-0.000778,-0.000775,-0.000771,0.000599,0.059907
0.677048,-0.136510,0.081366,0.014543,-0.009385,0.525059,0.043998,-0.149080,0.074778,-0.005420,0.008906,0.525065,0.002962,0.010698,-0.071162,-0.104562,0.511925,-0.054711,-1.841308,-0.102205,0.456537,0.248498,0.576298,2.488593,-2.248191,-0.746520,0.769657,1.440900,1.209108,-1.292080,0.002416,-0.000499,-0.001528,0.001735,-0.004983,-0.000031,-0.000775,-0.000778,-0.000775,-0.000771,0.000599,0.059912
0.678829,-0.136512,0.081366,0.014542,-0.009383,0.525060,0.043998,-0.149081,0.074778,-0.005422,0.008906,0.525065,0.002961,0.010698,-0.071163,-0.104563,0.511926,-0.054711,-1.841305,-0.102199,0.456542,0.248496,0.576300,2.488594,-2.248191,-0.746520,0.769659,1.440882,1.209108,-1.292066,0.002392,0.004312,-0.000617,0.002323,-0.006070,0.002566,-0.000775,-0.000778,-0.000776,-0.000771,0.000599,0.059918
0.680716,-0.136514,0.081367,0.014544,-0.009382,0.525060,0.043998,-0.149083,0.074778,-0.005423,0.008906,0.525065,0.002959,0.010697,-0.071164,-0.104565,0.511926,-0.054711,-1.841302,-0.102193,0.456547,0.248493,0.576301,2.488595,-2.248191,-0.746519,0.769660,1.440864,1.209106,-1.292032,0.002312,0.005240,0.002879,-0.000126,-0.002314,-0.000330,-0.000775,-0.000778,-0.000776,-0.000771,0.000599,0.059923
0.682694,-0.136515,0.081366,0.014540,-0.009382,0.525060,0.043998,-0.149084,0.074778,-0.005424,0.008907,0.525065,0.002957,0.010698,-0.071164,-0.104567,0.511926,-0.054711,-1.841299,-0.102187,0.456552,0.248491,0.576302,2.488595,-2.248193,-0.746518,0.769664,1.440849,1.209103,-1.291989,0.002203,0.003034,0.002777,0.000663,0.005898,0.002742,-0.000775,-0.000778,-0.000776,-0.000771,0.000599,0.059929
0.684702,-0.136516,0.081366,0.014540,-0.009382,0.525060,0.043997,-0.149086,0.074778,-0.005424,0.008907,0.525066,0.002955,0.010697,-0.071165,-0.104569,0.511926,-0.054711,-1.841297,-0.102181,0.456557,0.248488,0.576303,2.488595,-2.248197,-0.746513,0.769666,1.440832,1.209104,-1.291920,0.002027,-0.001668,-0.000231,-0.001622,0.007628,-0.000295,-0.000775,-0.000778,-0.000775,-0.000771,0.000599,0.059934
0.686685,-0.136517,0.081366,0.014542,-0.009382,0.525060,0.043998,-0.149087,0.074778,-0.005425,0.008908,0.525066,0.002953,0.010696,-0.071166,-0.104571,0.511926,-0.054711,-1.841294,-0.102175,0.456562,0.248486,0.576304,2.488595,-2.248199,-0.746512,0.769668,1.440809,1.209105,-1.291896,0.001988,-0.002674,0.000124,-0.000682,0.004534,0.002236,-0.000775,-0.000778,-0.000776,-0.000771,0.000599,0.059940
0.688688,-0.136518,0.081367,0.014546,-0.009383,0.525060,0.043998,-0.149088,0.074779,-0.005426,0.008908,0.525066,0.002951,0.010695,-0.071167,-0.104573,0.511926,-0.054711,-1.841291,-0.102170,0.456567,0.248484,0.576305,2.488596,-2.248200,-0.746510,0.769668,1.440787,1.209106,-1.291876,0.001963,-0.000713,-0.002509,0.002843,-0.002989,-0.001141,-0.000775,-0.000778,-0.000776,-0.000771,0.000599,0.059945
0.690717,-0.136518,0.081367,0.014544,-0.009384,0.525060,0.043998,-0.149090,0.074778,-0.005426,0.008909,0.525066,0.002950,0.010696,-0.071168,-0.104575,0.511926,-0.054711,-1.841288,-0.102164,0.456572,0.248481,0.576307,2.488596,-2.248201,-0.746510,0.769671,1.440769,1.209106,-1.291858,0.001941,0.003642,-0.001866,0.002770,-0.004009,0.001641,-0.000775,-0.000778,-0.000776,-0.000771,0.000599,0.059951
0.693036,-0.136518,0.081367,0.014544,-0.009384,0.525060,0.043998,-0.149090,0.074778,-0.005426,0.008909,0.525066,0.002950,0.010696,-0.071168,-0.104575,0.511926,-0.054711,-1.841288,-0.102164,0.456572,0.248481,0.576307,2.488596,-2.248201,-0.746510,0.769671,1.440769,1.209106,-1.291858,0.001941,0.003642,-0.001866,0.002770,-0.004009,0.001641,-0.000775,-0.000778,-0.000776,-0.000771,0.000599,0.059951
0.694727,-0.136518,0.081367,0.014544,-0.009384,0.525060,0.043998,-0.149090,0.074778,-0.005426,0.008909,0.525066,0.002950,0.010696,-0.071168,-0.104575,0.511926,-0.054711,-1.841288,-0.102164,0.456572,0.248481,0.576307,2.488596,-2.248201,-0.746510,0.769671,1.440769,1.209106,-1.291858,0.001941,0.003642,-0.001866,0.002770,-0.004009,0.001641,-0.000775,-0.000778,-0.000776,-0.000771,0.000599,0.059951
0.696708,-0.136518,0.081367,0.014544,-0.009384,0.525060,0.043998,-0.149090,0.074778,-0.005426,0.008909,0.525066,0.002950,0.010696,-0.071168,-0.104575,0.511926,-0.054711,-1.841288,-0.102164,0.456572,0.248481,0.576307,2.488596,-2.248201,-0.746510,0.769671,1.440769,1.209106,-1.291858,0.001941,0.003642,-0.001866,0.002770,-0.004009,0.001641,-0.000775,-0.000778,-0.000776,-0.000771,0.000599,0.059951
0.698728,-0.136518,0.081367,0.014544,-0.009384,0.525060,0.043998,-0.149090,0.074778,-0.005426,0.008909,0.525066,0.002950,0.010696,-0.071168,-0.104575,0.511926,-0.054711,-1.841288,-0.102164,0.456572,0.248481,0.576307,2.488596,-2.248201,-0.746510,0.769671,1.440769,1.209106,-1.291858,0.001941,0.003642,-0.001866,0.002770,-0.004009,0.001641,-0.000775,-0.000778,-0.000776,-0.000771,0.000599,0.059951
0.700929,-0.136518,0.081367,0.014544,-0.009384,0.525060,0.043998,-0.149090,0.074778,-0.005426,0.008909,0.525066,0.002950,0.010696,-0.071168,-0.104575,0.511926,-0.054711,-1.841288,-0.102164,0.456572,0.248481,0.576307,2.488596,-2.248201,-0.746510,0.769671,1.440769,1.209106,-1.291858,0.001941,0.003642,-0.001866,0.002770,-0.004009,0.001641,-0.000775,-0.000778,-0.000776,-0.000771,0.000599,0.059951
0.702721,-0.136520,0.081367,0.014545,-0.009384,0.525059,0.043998,-0.149093,0.074778,-0.005428,0.008911,0.525066,0.002946,0.010696,-0.071169,-0.104579,0.511927,-0.054711,-1.841283,-0.102152,0.456581,0.248476,0.576309,2.488597,-2.248204,-0.746507,0.769674,1.440736,1.209105,-1.291791,0.001804,0.001810,0.001145,0.000153,-0.001582,0.001639,-0.000775,-0.000778,-0.000776,-0.000771,0.000599,0.059962
0.704665,-0.136520,0.081367,0.014545,-0.009384,0.525059,0.043998,-0.149093,0.074778,-0.005428,0.008911,0.525066,0.002946,0.010696,-0.071169,-0.104579,0.511927,-0.054711,-1.841283,-0.102152,0.456586,0.248474,0.576310,2.488599,-2.248206,-0.746502,0.769676,1.440720,1.209105,-1.291714,0.001629,-0.003073,-0.002003,-0.002481,0.001936,-0.001136,-0.000775,-0.000778,-0.000775,-0.000771,0.000599,0.059967
0.706714,-0.136521,0.081367,0.014547,-0.009384,0.525059,0.043998,-0.149095,0.074779,-0.005428,0.008911,0.525066,0.002944,0.010696,-0.071170,-0.104581,0.511927,-0.054711,-1.841280,-0.102146,0.456586,0.248474,0.576310,2.488599,-2.248206,-0.746502,0.769676,1.440720,1.209105,-1.291714,0.001629,-0.003073,-0.002003,-0.002481,0.001936,-0.001136,-0.000775,-0.000778,-0.000775,-0.000771,0.000599,0.059967
0.708694,-0.136522,0.081366,0.014544,-0.009384,0.525059,0.043997,-0.149097,0.074778,-0.005429,0.008912,0.525066,0.002942,0.010697,-0.071171,-0.104583,0.511927,-0.054711,-1.841277,-0.102140,0.456591,0.248471,0.576311,2.488600,-2.248207,-0.746501,0.769678,1.440697,1.209105,-1.291685,0.001595,-0.004221,-0.001758,-0.001814,0.000304,0.001592,-0.000775,-0.000778,-0.000775,-0.000771,0.000599,0.059973
0.710708,-0.136523,0.081366,0.014544,-0.009385,0.525059,0.043997,-0.149098,0.074778,-0.005430,0.008913,0.525066,0.002940,0.010698,-0.071172,-0.104585,0.511927,-0.054711,-1.841274,-0.102135,0.456596,0.248469,0.576312,2.488601,-2.248206,-0.746501,0.769678,1.440673,1.209105,-1.291683,0.001641,-0.002363,0.001216,0.001504,-0.006031,-0.001639,-0.000775,-0.000778,-0.000775,-0.000771,0.000599,0.059978
0.712692,-0.136524,0.081367,0.014546,-0.009385,0.525059,0.043998,-0.149100,0.074778,-0.005430,0.008914,0.525066,0.002939,0.010699,-0.071173,-0.104588,0.511927,-0.054711,-1.841272,-0.102129,0.456601,0.248466,0.576313,2.488603,-2.248206,-0.746500,0.769679,1.440652,1.209105,-1.291663,0.001633,0.001905,0.000693,0.001259,-0.006074,0.001250,-0.000775,-0.000778,-0.000775,-0.000771,0.000599,0.059984
0.714679,-0.136525,0.081367,0.014547,-0.009385,0.525059,0.043998,-0.149101,0.074778,-0.005431,0.008914,0.525066,0.002937,0.010699,-0.071174,-0.104590,0.511927,-0.054711,-1.841269,-0.102123,0.456606,0.248464,0.576314,2.488604,-2.248208,-0.746497,0.769682,1.440632,1.209104,-1.291589,0.001496,0.002423,-0.002664,-0.001869,-0.001458,-0.001422,-0.000775,-0.000778,-0.000775,-0.000771,0.000599,0.059989
0.716710,-0.136527,0.081367,0.014546,-0.009383,0.525060,0.043998,-0.149103,0.074779,-0.005432,0.008915,0.525066,0.002935,0.010699,-0.071174,-0.104591,0.511928,-0.054711,-1.841266,-0.102117,0.456611,0.248462,0.576316,2.488604,-2.248209,-0.746496,0.769685,1.440615,1.209102,-1.291528,0.001387,-0.000068,-0.002585,-0.001615,0.007451,0.001825,-0.000775,-0.000778,-0.000775,-0.000771,0.000599,0.059995
0.718699,-0.136529,0.081367,0.014548,-0.009382,0.525060,0.043998,-0.149104,0.074779,-0.005433,0.008915,0.525066,0.002933,0.010699,-0.071175,-0.104593,0.511928,-0.054711,-1.841263,-0.102111,0.456615,0.248459,0.576317,2.488605,-2.248208,-0.746496,0.769686,1.440599,1.209103,-1.291488,0.001344,0.000700,0.000264,0.001369,0.008924,0.000180,-0.000775,-0.000778,-0.000775,-0.000771,0.000599,0.060000
0.720717,-0.136530,0.081367,0.014545,-0.009382,0.525060,0.043997,-0.149106,0.074779,-0.005433,0.008917,0.525066,0.002931,0.010699,-0.071176,-0.104594,0.511928,-0.054711,-1.841260,-0.102105,0.456620,0.248457,0.576318,2.488605,-2.248211,-0.746491,0.769688,1.440582,1.209107,-1.291413,0.001204,-0.001601,-0.000363,0.000851,0.005319,-0.003362,-0.000775,-0.000778,-0.000775,-0.000771,0.000599,0.060006
0.722732,-0.136530,0.081367,0.014545,-0.009382,0.525060,0.043997,-0.149106,0.074779,-0.005433,0.008917,0.525066,0.002931,0.010699,-0.071176,-0.104594,0.511928,-0.054711,-1.841260,-0.102105,0.456620,0.248457,0.576318,2.488605,-2.248211,-0.746491,0.769688,1.440582,1.209107,-1.291413,0.001204,-0.001601,-0.000363,0.000851,0.005319,-0.003362,-0.000775,-0.000778,-0.000775,-0.000771,0.000599,0.060006
0.724700,-0.136530,0.081367,0.014545,-0.009382,0.525060,0.043997,-0.149106,0.074779,-0.005433,0.008917,0.525066,0.002931,0.010699,-0.071176,-0.104594,0.511928,-0.054711,-1.841260,-0.102105,0.456620,0.248457,0.576318,2.488605,-2.248211,-0.746491,0.769688,1.440582,1.209107,-1.291413,0.001204,-0.001601,-0.000363,0.000851,0.005319,-0.003362,-0.000775,-0.000778,-0.000775,-0.000771,0.000599,0.060006
0.726709,-0.136530,0.081367,0.014545,-0.009382,0.525060,0.043997,-0.149106,0.074779,-0.005433,0.008917,0.525066,0.002931,0.010699,-0.071176,-0.104594,0.511928,-0.054711,-1.841260,-0.102105,0.456620,0.248457,0.576318,2.488605,-2.248211,-0.746491,0.769688,1.440582,1.209107,-1.291413,0.001204,-0.001601,-0.000363,0.000851,0.005319,-0.003362,-0.000775,-0.000778,-0.000775,-0.000771,0.000599,0.060006
0.728709,-0.136530,0.081367,0.014545,-0.009382,0.525060,0.043997,-0.149106,0.074779,-0.005433,0.008917,0.525066,0.002931,0.010699,-0.071176,-0.104594,0.511928,-0.054711,-1.841260,-0.102105,0.456620,0.248457,0.576318,2.488605,-2.248211,-0.746491,0.769688,1.440582,1.209107,-1.291413,0.001204,-0.001601,-0.000363,0.000851,0.005319,-0.003362,-0.000775,-0.000778,-0.000775,-0.000771,0.000599,0.060006
0.730697,-0.136530,0.081367,0.014545,-0.009382,0.525060,0.043997,-0.149106,0.074779,-0.005433,0.008917,0.525066,0.002931,0.010699,-0.071176,-0.104594,0.511928,-0.054711,-1.841260,-0.102105,0.456620,0.248457,0.576318,2.488605,-2.248211,-0.746491,0.769688,1.440582,1.209107,-1.291413,0.001204,-0.001601,-0.000363,0.000851,0.005319,-0.003362,-0.000775,-0.000778,-0.000775,-0.000771,0.000599,0.060006
0.732695,-0.136532,0.081367,0.014545,-0.009382,0.525060,0.043997,-0.149105,0.074779,-0.005437,0.008912,0.525066,0.002928,0.010696,-0.071177,-0.104599,0.511928,-0.054711,-1.841255,-0.102093,0.456630,0.248452,0.576320,2.488604,-2.248214,-0.746486,0.769693,1.440554,1.209115,-1.291296,0.001014,0.002839,0.000812,-0.002377,-0.003134,0.006048,-0.000775,-0.000778,-0.000775,-0.000771,0.000599,0.060017
0.735256,-0.136533,0.081367,0.014549,-0.009383,0.525060,0.043998,-0.149105,0.074779,-0.005438,0.008911,0.525066,0.002926,0.010694,-0.071178,-0.104601,0.511928,-0.054711,-1.841252,-0.102087,0.456635,0.248450,0.576321,2.488604,-2.248216,-0.746484,0.769695,1.440542,1.209114,-1.291226,0.000880,0.002755,-0.002988,0.000482,0.000649,0.006883,-0.000775,-0.000778,-0.000776,-0.000771,0.000599,0.060023
0.736685,-0.136533,0.081367,0.014547,-0.009384,0.525059,0.043998,-0.149105,0.074779,-0.005440,0.008910,0.525066,0.002924,0.010694,-0.071178,-0.104603,0.511928,-0.054711,-1.841249,-0.102082,0.456640,0.248447,0.576323,2.488605,-2.248218,-0.746480,0.769695,1.440529,1.209116,-1.291165,0.000757,-0.000231,-0.003271,-0.000120,-0.001233,0.002085,-0.000775,-0.000778,-0.000775,-0.000771,0.000599,0.060028
0.738707,-0.136533,0.081367,0.014547,-0.009384,0.525059,0.043998,-0.149105,0.074779,-0.005440,0.008910,0.525066,0.002924,0.010694,-0.071178,-0.104603,0.511928,-0.054711,-1.841249,-0.102082,0.456640,0.248447,0.576323,2.488605,-2.248218,-0.746480,0.769695,1.440529,1.209116,-1.291165,0.000757,-0.000231,-0.003271,-0.000120,-0.001233,-0.006746,-0.000775,-0.000778,-0.000775,-0.000771,0.000599,0.060034
0.740700,-0.136533,0.081366,0.014541,-0.009385,0.525059,0.043996,-0.149106,0.074778,-0.005441,0.008910,0.525066,0.002922,0.010695,-0.071179,-0.104606,0.511929,-0.054711,-1.841246,-0.102076,0.456645,0.248445,0.576324,2.488604,-2.248218,-0.746481,0.769696,1.440516,1.209114,-1.291122,0.000689,0.000135,-0.000716,0.002165,0.001927,-0.006746,-0.000775,-0.000778,-0.000775,-0.000771,0.000599,0.060034
